
%
O05555(CS390_Test_NC)
(Using G0 which travels along dogleg path.)
(T1 D=2. CR=0. - ZMIN=-0.125 - face mill)
(T3 D=0.5 CR=0. - ZMIN=-1.125 - flat end mill)
N10G90G94G17
N15G20
N20G53G00Z0.

(Face3)
N30T1M06
N35S6500M03
N40G54
N45M08
N60G00X5.675Y0.3147
N65G43Z1.H1
N70T3
N75G00Z0.5
N80G01Z0.175F65.
N85G18G03X5.475Z-0.025I-0.2K0.
N90G01X4.375
N95X0.
N100G17G02Y1.6103I0.J0.6478
N105G01X4.375
N110G03Y2.906I0.J0.6478
N115G01X0.
N120G18G03X-0.2Z0.175I0.K0.2
N125G00Z0.5
N130X-1.3Y0.3147
N135G01Z0.125F65.
N140G02X-1.1Z-0.075I0.2K0.
N145G01X0.
N150X4.375
N155G17G03Y1.6103I0.J0.6478
N160G01X0.
N165G02Y2.906I0.J0.6478
N170G01X4.375
N175G18G02X4.575Z0.125I0.K0.2
N180G00Z0.5
N185X5.675Y0.3147
N190G01Z0.075F65.
N195G03X5.475Z-0.125I-0.2K0.
N200G01X4.375
N205X0.
N210G17G02Y1.6103I0.J0.6478
N215G01X4.375
N220G03Y2.906I0.J0.6478
N225G01X0.
N230G18G03X-0.2Z0.075I0.K0.2
N235G00Z1.
N240M05
N245G53G00Z0.

N66435M05
N66440M09
N66445G53G00Z0.
N66455X2.1875
N66460G53Y0.
N66465M30

%
