%
O05555 (CS390_Test_NC)
(Using G0 which travels along dogleg path.)
(T1 D=2. CR=0. - ZMIN=-0.125 - face mill)
(T3 D=0.5 CR=0. - ZMIN=-1.125 - flat end mill)
N10 G90 G94 G17
N15 G20
N20 G53 G0 Z0.

(Face3)
N30 T1 M6
N35 S6500 M3
N40 G54
N45 M8
N60 G0 X5.675 Y0.3147
N65 G43 Z1. H1
N70 T3
N75 G0 Z0.5
N80 G1 Z0.175 F65.
N85 G18 G3 X5.475 Z-0.025 I-0.2 K0.
N90 G1 X4.375
N95 X0.
N100 G17 G2 Y1.6103 I0. J0.6478
N105 G1 X4.375
N110 G3 Y2.906 I0. J0.6478
N115 G1 X0.
N120 G18 G3 X-0.2 Z0.175 I0. K0.2
N125 G0 Z0.5
N130 X-1.3 Y0.3147
N135 G1 Z0.125 F65.
N140 G2 X-1.1 Z-0.075 I0.2 K0.
N145 G1 X0.
N150 X4.375
N155 G17 G3 Y1.6103 I0. J0.6478
N160 G1 X0.
N165 G2 Y2.906 I0. J0.6478
N170 G1 X4.375
N175 G18 G2 X4.575 Z0.125 I0. K0.2
N180 G0 Z0.5
N185 X5.675 Y0.3147
N190 G1 Z0.075 F65.
N195 G3 X5.475 Z-0.125 I-0.2 K0.
N200 G1 X4.375
N205 X0.
N210 G17 G2 Y1.6103 I0. J0.6478
N215 G1 X4.375
N220 G3 Y2.906 I0. J0.6478
N225 G1 X0.
N230 G18 G3 X-0.2 Z0.075 I0. K0.2
N235 G0 Z1.
N240 M5
N245 G53 G0 Z0.

(2D Adaptive1)
N255 M9
N260 M1
N265 T3 M6
N270 S3000 M3
N275 G54
N280 M8
N290 G17
N295 G0 X-0.347 Y-0.4547
N300 G43 Z0.875 H3
N305 T1
N310 G0 Z0.375
N315 Z-0.0746
N320 G1 Z-0.1246 F15.
N325 X-0.3468 Y-0.4545 Z-0.1302
N330 X-0.3461 Y-0.4538 Z-0.1357
N335 X-0.345 Y-0.4527 Z-0.1411
N340 X-0.3434 Y-0.4513 Z-0.1463
N345 X-0.3415 Y-0.4494 Z-0.1512
N350 X-0.3391 Y-0.4471 Z-0.1558
N355 X-0.3364 Y-0.4446 Z-0.16
N360 X-0.3334 Y-0.4417 Z-0.1637
N365 X-0.3301 Y-0.4385 Z-0.1669
N370 X-0.3265 Y-0.4352 Z-0.1697
N375 X-0.3228 Y-0.4316 Z-0.1718
N380 X-0.3189 Y-0.4279 Z-0.1734
N385 X-0.3148 Y-0.4241 Z-0.1743
N390 X-0.3108 Y-0.4202 Z-0.1746
N395 G3 X-0.1332 Y-0.2103 I-0.88 J0.9247
N400 G1 X-0.1303 Y-0.2057 F30.
N405 X-0.1128 Y-0.1591
N410 X-0.0988 Y-0.1098
N415 X-0.0878 Y-0.0598
N420 X-0.0792 Y-0.0092
N425 X-0.0725 Y0.0416
N430 X-0.0672 Y0.0926
N435 X-0.063 Y0.1437
N440 X-0.0598 Y0.1949
N445 X-0.0572 Y0.2461
N450 X-0.0551 Y0.2973
N455 X-0.0535 Y0.3486
N460 X-0.0523 Y0.3998
N465 X-0.0513 Y0.4511
N470 X-0.0505 Y0.5024
N475 X-0.0499 Y0.5536
N480 X-0.0494 Y0.6049
N485 X-0.049 Y0.6562
N490 X-0.0487 Y0.7074
N495 X-0.0484 Y0.7587
N500 X-0.0482 Y0.81
N505 X-0.048 Y0.9125
N510 X-0.0477 Y1.0663
N515 X-0.0476 Y1.2989
N520 X-0.0485 Y1.3132
N525 X-0.0511 Y1.3273
N530 X-0.0554 Y1.3409
N535 X-0.06 Y1.3529
N540 X-0.0692 Y1.3838
N545 X-0.073 Y1.3979
N550 X-0.0962 Y1.4878
N555 X-0.0992 Y1.4993
N560 X-0.1 Y1.5028
N565 X-0.1052 Y1.5328
N570 X-0.1073 Y1.5478
N575 X-0.1188 Y1.6377
N580 X-0.1206 Y1.6527
N585 X-0.1227 Y1.6827
N590 X-0.123 Y1.6977
N595 Y1.7876
N600 X-0.1229 Y1.8026
N605 X-0.122 Y1.8326
N610 X-0.1205 Y1.8476
N615 X-0.1168 Y1.8775
N620 X-0.1092 Y1.9375
N625 X-0.1073 Y1.9525
N630 X-0.103 Y1.9825
N635 X-0.0997 Y1.9975
N640 X-0.0992 Y1.9995
N645 X-0.0896 Y2.0499
N650 X-0.0806 Y2.1003
N655 X-0.0736 Y2.1511
N660 X-0.068 Y2.2021
N665 X-0.0637 Y2.2532
N670 X-0.0603 Y2.3044
N675 X-0.0576 Y2.3556
N680 X-0.0555 Y2.4068
N685 X-0.0538 Y2.458
N690 X-0.0525 Y2.5093
N695 X-0.0514 Y2.5605
N700 X-0.0506 Y2.6118
N705 X-0.05 Y2.6631
N710 X-0.0494 Y2.7144
N715 X-0.049 Y2.7656
N720 X-0.0487 Y2.8169
N725 X-0.0485 Y2.8682
N730 X-0.0483 Y2.9194
N735 X-0.048 Y3.022
N740 X-0.0477 Y3.1758
N745 X-0.0476 Y3.3809
N750 X-0.0475 Y3.6372
N755 X-0.0457 Y3.6499
N760 X-0.0393 Y3.6747
N765 X-0.0166 Y3.7208
N770 X0.0171 Y3.7594
N775 X0.0572 Y3.7913
N780 X0.1014 Y3.8173
N785 X0.1481 Y3.8384
N790 X0.1965 Y3.8554
N795 X0.2459 Y3.8691
N800 X0.296 Y3.88
N805 X0.3465 Y3.8888
N810 X0.3973 Y3.8957
N815 X0.4483 Y3.9013
N820 X0.4994 Y3.9057
N825 X0.5505 Y3.9092
N830 X0.6017 Y3.9119
N835 X0.653 Y3.9141
N840 X0.7042 Y3.9159
N845 X0.7555 Y3.9173
N850 X0.8067 Y3.9184
N855 X0.858 Y3.9192
N860 X0.9092 Y3.9199
N865 X0.9605 Y3.9205
N870 X1.0118 Y3.9209
N875 X1.0631 Y3.9212
N880 X1.1143 Y3.9215
N885 X1.1656 Y3.9217
N890 X1.2681 Y3.922
N895 X1.3707 Y3.9222
N900 X1.5245 Y3.9223
N905 X1.8321 Y3.9225
N910 X2.191
N915 X2.2712
N920 X2.288 Y3.9237
N925 X2.3044 Y3.9273
N930 X2.3201 Y3.9332
N935 X2.3299 Y3.9378
N940 X2.3599 Y3.9514
N945 X2.3749 Y3.9563
N950 X2.3899 Y3.9612
N955 X2.4049 Y3.9655
N960 X2.4649 Y3.9816
N965 X2.4799 Y3.985
N970 X2.4949 Y3.9881
N975 X2.5099 Y3.9906
N980 X2.5399 Y3.9935
N985 X2.5699 Y3.9961
N990 X2.5849 Y3.9974
N995 X2.6148 Y3.9997
N1000 X2.6298 Y3.9993
N1005 X2.6448 Y3.9989
N1010 X2.6598 Y3.9979
N1015 X2.7198 Y3.9927
N1020 X2.7331 Y3.9912
N1025 X2.7498 Y3.989
N1030 X2.7648 Y3.9865
N1035 X2.7948 Y3.979
N1040 X2.8449 Y3.9683
N1045 X2.8953 Y3.9585
N1050 X2.946 Y3.9509
N1055 X2.9969 Y3.9449
N1060 X3.0479 Y3.9401
N1065 X3.0991 Y3.9364
N1070 X3.1503 Y3.9335
N1075 X3.2015 Y3.9312
N1080 X3.2527 Y3.9294
N1085 X3.304 Y3.9279
N1090 X3.3552 Y3.9268
N1095 X3.4065 Y3.9259
N1100 X3.4578 Y3.9252
N1105 X3.509 Y3.9246
N1110 X3.5603 Y3.9242
N1115 X3.6116 Y3.9238
N1120 X3.6628 Y3.9235
N1125 X3.7141 Y3.9233
N1130 X3.8167 Y3.923
N1135 X3.9192 Y3.9228
N1140 X4.073 Y3.9227
N1145 X4.1371 Y3.9226
N1150 X4.1498 Y3.9212
N1155 X4.1624 Y3.9184
N1160 X4.2109 Y3.9018
N1165 X4.2512 Y3.8701
N1170 X4.2845 Y3.8311
N1175 X4.3118 Y3.7877
N1180 X4.3339 Y3.7415
N1185 X4.3518 Y3.6934
N1190 X4.3662 Y3.6442
N1195 X4.3777 Y3.5943
N1200 X4.3869 Y3.5438
N1205 X4.3943 Y3.4931
N1210 X4.4001 Y3.4421
N1215 X4.4047 Y3.3911
N1220 X4.4084 Y3.3399
N1225 X4.4114 Y3.2887
N1230 X4.4137 Y3.2375
N1235 X4.4155 Y3.1863
N1240 X4.417 Y3.135
N1245 X4.4181 Y3.0838
N1250 X4.419 Y3.0325
N1255 X4.4198 Y2.9812
N1260 X4.4203 Y2.93
N1265 X4.4208 Y2.8787
N1270 X4.4211 Y2.8274
N1275 X4.4214 Y2.7762
N1280 X4.4217 Y2.7249
N1285 X4.422 Y2.6224
N1290 X4.4222 Y2.5198
N1295 X4.4223 Y2.366
N1300 X4.4224 Y2.1096
N1305 X4.4225 Y2.013
N1310 X4.4237 Y1.9962
N1315 X4.4273 Y1.9797
N1320 X4.4333 Y1.964
N1325 X4.4414 Y1.9493
N1330 X4.4491 Y1.9375
N1335 X4.4572 Y1.9225
N1340 X4.4644 Y1.9075
N1345 X4.4709 Y1.8925
N1350 X4.476 Y1.8775
N1355 X4.481 Y1.8625
N1360 X4.4901 Y1.8326
N1365 X4.4932 Y1.8176
N1370 X4.4958 Y1.8026
N1375 X4.4973 Y1.7876
N1380 X4.498 Y1.7726
N1385 X4.4984 Y1.7576
N1390 Y1.7276
N1395 X4.4972 Y1.7126
N1400 X4.4959 Y1.6977
N1405 X4.4933 Y1.6827
N1410 X4.4892 Y1.664
N1415 X4.486 Y1.6527
N1420 X4.4725 Y1.6032
N1425 X4.4618 Y1.5531
N1430 X4.4535 Y1.5025
N1435 X4.4469 Y1.4516
N1440 X4.4417 Y1.4006
N1445 X4.4377 Y1.3495
N1450 X4.4345 Y1.2983
N1455 X4.432 Y1.2471
N1460 X4.43 Y1.1959
N1465 X4.4284 Y1.1446
N1470 X4.4272 Y1.0934
N1475 X4.4262 Y1.0421
N1480 X4.4254 Y0.9909
N1485 X4.4248 Y0.9396
N1490 X4.4243 Y0.8883
N1495 X4.4239 Y0.837
N1500 X4.4236 Y0.7858
N1505 X4.4234 Y0.7345
N1510 X4.4231 Y0.632
N1515 X4.4229 Y0.5294
N1520 X4.4227 Y0.3756
N1525 X4.4226 Y0.2218
N1530 X4.4075 Y0.1728
N1535 X4.3777 Y0.1311
N1540 X4.3399 Y0.0964
N1545 X4.2972 Y0.0681
N1550 X4.2514 Y0.045
N1555 X4.2036 Y0.0263
N1560 X4.1546 Y0.0113
N1565 X4.1047 Y-0.0007
N1570 X4.0544 Y-0.0103
N1575 X4.0037 Y-0.018
N1580 X3.9528 Y-0.0241
N1585 X3.9017 Y-0.0289
N1590 X3.8506 Y-0.0328
N1595 X3.7994 Y-0.0358
N1600 X3.7482 Y-0.0383
N1605 X3.697 Y-0.0402
N1610 X3.6457 Y-0.0417
N1615 X3.5945 Y-0.0429
N1620 X3.5432 Y-0.0439
N1625 X3.4919 Y-0.0446
N1630 X3.4407 Y-0.0452
N1635 X3.3894 Y-0.0457
N1640 X3.3381 Y-0.0461
N1645 X3.2869 Y-0.0464
N1650 X3.2356 Y-0.0466
N1655 X3.1512 Y-0.0469
N1660 X3.1473 Y-0.047
N1665 X3.1434 Y-0.0472
N1670 X3.1396 Y-0.0475
N1675 X3.1247 Y-0.049
N1680 X3.1097 Y-0.0499
N1685 X3.0947
N1690 X3.0797
N1695 X3.0647 Y-0.0494
N1700 X3.0134 Y-0.0503
N1705 X2.9622 Y-0.0497
N1710 X2.9109 Y-0.0493
N1715 X2.8868 Y-0.0491
N1720 X2.8701 Y-0.0502
N1725 X2.8538 Y-0.0536
N1730 X2.8381 Y-0.0594
N1735 X2.8234 Y-0.0673
N1740 G3 X2.8539 Y-0.1585 I0.0283 J-0.0412
N1745 G1 X3.0635 Y-0.1493
N1750 G3 X3.0835 Y-0.0545 I-0.0022 J0.05
N1755 X3.0647 Y-0.0494 I-0.0222 J-0.0448 F15.
N1760 G1 X3.0497 Y-0.0489 F30.
N1765 X3.0347 Y-0.0471
N1770 X3.0197 Y-0.0447
N1775 X3.0047 Y-0.0412
N1780 X2.9897 Y-0.0368
N1785 X2.9747 Y-0.0322
N1790 X2.9447 Y-0.022
N1795 X2.9297 Y-0.0161
N1800 X2.9222 Y-0.014
N1805 X2.9147 Y-0.013
N1810 X2.9072 Y-0.0132
N1815 X2.8997 Y-0.0145
N1820 X2.8922 Y-0.0171
N1825 X2.8848 Y-0.0212
N1830 X2.8782 Y-0.0262
N1835 X2.8698 Y-0.033
N1840 X2.8548 Y-0.0445
N1845 X2.839 Y-0.0562
N1850 X2.8248 Y-0.0664
N1855 X2.8172 Y-0.0712
N1860 X2.7903 Y-0.0862
N1865 X2.7798 Y-0.0912
N1870 X2.7648 Y-0.0968
N1875 X2.7524 Y-0.1012
N1880 X2.7198 Y-0.1118
N1885 X2.7048 Y-0.1155
N1890 X2.6898 Y-0.1189
N1895 X2.6748 Y-0.1211
N1900 X2.6598 Y-0.1225
N1905 X2.6448 Y-0.1233
N1910 X2.6148 Y-0.1234
N1915 X2.5849 Y-0.1223
N1920 X2.5699 Y-0.1203
N1925 X2.5549 Y-0.1178
N1930 X2.5462 Y-0.1162
N1935 X2.5399 Y-0.1143
N1940 X2.4901 Y-0.1021
N1945 X2.4401 Y-0.0904
N1950 X2.3897 Y-0.0812
N1955 X2.3389 Y-0.0741
N1960 X2.288 Y-0.0685
N1965 X2.2369 Y-0.064
N1970 X2.1857 Y-0.0605
N1975 X2.1345 Y-0.0578
N1980 X2.0833 Y-0.0556
N1985 X2.0321 Y-0.0539
N1990 X1.9808 Y-0.0526
N1995 X1.9296 Y-0.0515
N2000 X1.8783 Y-0.0507
N2005 X1.827 Y-0.05
N2010 X1.7757 Y-0.0495
N2015 X1.7245 Y-0.0491
N2020 X1.6732 Y-0.0487
N2025 X1.6219 Y-0.0485
N2030 X1.5707 Y-0.0483
N2035 X1.4681 Y-0.048
N2040 X1.3143 Y-0.0477
N2045 X1.1092 Y-0.0476
N2050 X0.699 Y-0.0475
N2055 X0.5452
N2060 X0.417
N2065 X0.4043 Y-0.0465
N2070 X0.3917 Y-0.0441
N2075 X0.3794 Y-0.0403
N2080 X0.3677 Y-0.0352
N2085 X0.3231 Y-0.0098
N2090 X0.2879 Y0.0274
N2095 X0.2594 Y0.07
N2100 X0.2366 Y0.116
N2105 X0.2185 Y0.1639
N2110 X0.2042 Y0.2132
N2115 X0.1929 Y0.2632
N2120 X0.184 Y0.3137
N2125 X0.177 Y0.3645
N2130 X0.1716 Y0.4155
N2135 X0.1673 Y0.4666
N2140 X0.164 Y0.5177
N2145 X0.1614 Y0.5689
N2150 X0.1594 Y0.6202
N2155 X0.1579 Y0.6714
N2160 X0.1566 Y0.7227
N2165 X0.1557 Y0.7739
N2170 X0.155 Y0.8252
N2175 X0.1544 Y0.8765
N2180 X0.154 Y0.9265
N2185 X0.1524 Y0.9446
N2190 X0.1481 Y0.9622
N2195 X0.141 Y0.979
N2200 X0.1315 Y0.9944
N2205 X0.0885 Y1.0531
N2210 X0.0785 Y1.0681
N2215 X0.0658 Y1.0872
N2220 X0.0594 Y1.098
N2225 X0.0058 Y1.195
N2230 X0.0014 Y1.203
N2235 X-0.0121 Y1.233
N2240 X-0.0184 Y1.248
N2245 X-0.0549 Y1.3396
N2250 X-0.0554 Y1.3409
N2255 X-0.0556 Y1.3414
N2260 G2 X-0.1108 Y1.4493 I0.589 J0.3695
N2265 X-0.1144 Y1.4648 I0.0463 J0.0188
N2270 G1 X-0.1413 Y1.869
N2275 G2 X-0.1398 Y1.8848 I0.0499 J0.0033
N2280 X-0.107 Y1.9815 I0.6732 J-0.174
N2285 X-0.0993 Y1.9991 I0.6404 J-0.2707 F15.
N2290 G1 X-0.0992 Y1.9995
N2295 X-0.096 Y2.0125 F30.
N2300 X-0.0923 Y2.0274
N2305 X-0.0768 Y2.0874
N2310 X-0.0729 Y2.1024
N2315 X-0.0648 Y2.1324
N2320 X-0.0597 Y2.1474
N2325 X-0.0541 Y2.1624
N2330 X-0.0183 Y2.2523
N2335 X-0.0092 Y2.2741
N2340 X-0.0058 Y2.2823
N2345 X0.0019 Y2.2973
N2350 X0.0099 Y2.3123
N2355 X0.0181 Y2.3272
N2360 X0.043 Y2.3722
N2365 X0.0632 Y2.4136
N2370 X0.0812 Y2.4591
N2375 X0.0961 Y2.5081
N2380 X0.1078 Y2.558
N2385 X0.117 Y2.6085
N2390 X0.1243 Y2.6592
N2395 X0.1301 Y2.7102
N2400 X0.1347 Y2.7612
N2405 X0.1383 Y2.8124
N2410 X0.1412 Y2.8636
N2415 X0.1435 Y2.9148
N2420 X0.1454 Y2.966
N2425 X0.1468 Y3.0173
N2430 X0.148 Y3.0685
N2435 X0.1489 Y3.1198
N2440 X0.1496 Y3.1711
N2445 X0.1502 Y3.2223
N2450 X0.1507 Y3.2736
N2455 X0.1511 Y3.3249
N2460 X0.1513 Y3.3761
N2465 X0.1608 Y3.4265
N2470 X0.1825 Y3.473
N2475 X0.2133 Y3.514
N2480 X0.2503 Y3.5494
N2485 X0.2918 Y3.5796
N2490 X0.3364 Y3.6049
N2495 X0.3831 Y3.626
N2500 X0.4313 Y3.6436
N2505 X0.4805 Y3.6581
N2510 X0.5303 Y3.67
N2515 X0.5807 Y3.6798
N2520 X0.6313 Y3.6878
N2525 X0.6821 Y3.6944
N2530 X0.7331 Y3.6997
N2535 X0.7842 Y3.7041
N2540 X0.8354 Y3.7076
N2545 X0.8866 Y3.7104
N2550 X0.9378 Y3.7128
N2555 X0.989 Y3.7146
N2560 X1.0403 Y3.7162
N2565 X1.0915 Y3.7174
N2570 X1.1428 Y3.7184
N2575 X1.1941 Y3.7192
N2580 X1.2453 Y3.7198
N2585 X1.2966 Y3.7203
N2590 X1.3479 Y3.7208
N2595 X1.3991 Y3.7211
N2600 X1.4504 Y3.7214
N2605 X1.5017 Y3.7216
N2610 X1.6042 Y3.7219
N2615 X1.7068 Y3.7221
N2620 X1.8606 Y3.7223
N2625 X1.9911 Y3.7224
N2630 X2.0094 Y3.7238
N2635 X2.0272 Y3.7281
N2640 X2.0441 Y3.7351
N2645 X2.0597 Y3.7447
N2650 X2.0736 Y3.7566
N2655 X2.105 Y3.788
N2660 X2.135 Y3.8172
N2665 X2.1455 Y3.8263
N2670 X2.1658 Y3.8413
N2675 X2.18 Y3.8517
N2680 X2.21 Y3.8727
N2685 X2.2297 Y3.8862
N2690 X2.24 Y3.8933
N2695 X2.2535 Y3.9012
N2700 X2.285 Y3.9168
N2705 X2.3 Y3.9239
N2710 X2.3201 Y3.9332
N2715 X2.3205 Y3.9335
N2720 G2 X2.3363 Y3.9444 I0.276 J-0.3832
N2725 X2.4291 Y3.9919 I0.2603 J-0.394
N2730 X2.442 Y3.9949 I0.0177 J-0.0468
N2735 G1 X2.6634 Y4.0162
N2740 G2 X2.6767 Y4.0157 I0.0048 J-0.0498
N2745 X2.7768 Y3.9868 I-0.0801 J-0.4654
N2750 X2.7944 Y3.9791 I-0.1802 J-0.4365 F15.
N2755 G1 X2.7948 Y3.979
N2760 X2.8398 Y3.9669 F30.
N2765 X2.8698 Y3.9586
N2770 X2.8848 Y3.9528
N2775 X2.9016 Y3.9462
N2780 X2.9147 Y3.9403
N2785 X2.9747 Y3.9124
N2790 X2.9897 Y3.9046
N2795 X3.0047 Y3.8964
N2800 X3.0197 Y3.8868
N2805 X3.0635 Y3.8562
N2810 X3.0961 Y3.8358
N2815 X3.1289 Y3.8186
N2820 X3.1715 Y3.8006
N2825 X3.2202 Y3.7845
N2830 X3.2698 Y3.7718
N2835 X3.3201 Y3.7617
N2840 X3.3707 Y3.7538
N2845 X3.4216 Y3.7474
N2850 X3.4727 Y3.7424
N2855 X3.5238 Y3.7383
N2860 X3.5749 Y3.7351
N2865 X3.6261 Y3.7326
N2870 X3.6774 Y3.7306
N2875 X3.7286 Y3.7289
N2880 X3.7799 Y3.7276
N2885 X3.8311 Y3.7266
N2890 X3.8824 Y3.7258
N2895 X3.9325 Y3.7147
N2900 X3.9783 Y3.6917
N2905 X4.0187 Y3.6602
N2910 X4.0534 Y3.6225
N2915 X4.083 Y3.5805
N2920 X4.1077 Y3.5357
N2925 X4.1284 Y3.4887
N2930 X4.1456 Y3.4404
N2935 X4.1597 Y3.3911
N2940 X4.1714 Y3.3412
N2945 X4.1809 Y3.2908
N2950 X4.1888 Y3.2402
N2955 X4.1951 Y3.1893
N2960 X4.2003 Y3.1383
N2965 X4.2046 Y3.0872
N2970 X4.208 Y3.036
N2975 X4.2108 Y2.9848
N2980 X4.213 Y2.9336
N2985 X4.2149 Y2.8824
N2990 X4.2163 Y2.8311
N2995 X4.2175 Y2.7799
N3000 X4.2185 Y2.7286
N3005 X4.2193 Y2.6773
N3010 X4.2199 Y2.6261
N3015 X4.2204 Y2.5748
N3020 X4.2208 Y2.5235
N3025 X4.221 Y2.4897
N3030 X4.2221 Y2.4749
N3035 X4.225 Y2.4603
N3040 X4.2297 Y2.4463
N3045 X4.2343 Y2.4351
N3050 X4.2708 Y2.3422
N3055 X4.2766 Y2.3272
N3060 X4.2866 Y2.2973
N3065 X4.2911 Y2.2823
N3070 X4.3213 Y2.1773
N3075 X4.3288 Y2.1474
N3080 X4.3321 Y2.1324
N3085 X4.3434 Y2.0724
N3090 X4.345 Y2.0649
N3095 X4.3479 Y2.0574
N3100 X4.3507 Y2.0525
N3105 X4.3542 Y2.0475
N3110 X4.359 Y2.0424
N3115 X4.3692 Y2.034
N3120 X4.3842 Y2.0209
N3125 X4.3923 Y2.0125
N3130 X4.3992 Y2.0052
N3135 X4.4056 Y1.9975
N3140 X4.4292 Y1.9666
N3145 X4.4393 Y1.9525
N3150 X4.4414 Y1.9493
N3155 X4.4417 Y1.9489
N3160 G2 X4.4545 Y1.9346 I-0.1845 J-0.1789
N3165 X4.4818 Y1.895 I-0.1973 J-0.1647
N3170 X4.4875 Y1.8781 I-0.0437 J-0.0243
N3175 G1 X4.5091 Y1.7341
N3180 G2 X4.5086 Y1.7163 I-0.0494 J-0.0074
N3185 X4.4942 Y1.6705 I-0.2514 J0.0537
N3190 X4.4861 Y1.653 I-0.237 J0.0994 F15.
N3195 G1 X4.486 Y1.6527
N3200 X4.4762 Y1.6227 F30.
N3205 X4.471 Y1.6077
N3210 X4.4651 Y1.5927
N3215 X4.4592 Y1.5814
N3220 X4.4491 Y1.5627
N3225 X4.4442 Y1.5543
N3230 X4.4397 Y1.5478
N3235 X4.4288 Y1.5328
N3240 X4.4175 Y1.5178
N3245 X4.4058 Y1.5028
N3250 X4.3992 Y1.4945
N3255 X4.3947 Y1.4878
N3260 X4.3912 Y1.4803
N3265 X4.3891 Y1.4728
N3270 X4.3881 Y1.4653
N3275 X4.3883 Y1.4578
N3280 X4.3896 Y1.4503
N3285 X4.3921 Y1.4428
N3290 X4.3978 Y1.4278
N3295 X4.4081 Y1.3979
N3300 X4.417 Y1.3679
N3305 X4.42 Y1.3529
N3310 X4.4225 Y1.3379
N3315 X4.4239 Y1.3229
N3320 X4.4245 Y1.3079
N3325 X4.4249 Y1.2929
N3330 Y1.2629
N3335 X4.4237 Y1.248
N3340 X4.4223 Y1.233
N3345 X4.4196 Y1.218
N3350 X4.4142 Y1.1946
N3355 X4.4121 Y1.188
N3360 X4.4025 Y1.158
N3365 X4.3969 Y1.143
N3370 X4.3913 Y1.128
N3375 X4.3842 Y1.1149
N3380 X4.3748 Y1.098
N3385 X4.3692 Y1.0886
N3390 X4.3653 Y1.0831
N3395 X4.3545 Y1.0681
N3400 X4.3358 Y1.0398
N3405 X4.3197 Y1.0105
N3410 X4.3027 Y0.9726
N3415 X4.2855 Y0.9243
N3420 X4.2721 Y0.8748
N3425 X4.2617 Y0.8246
N3430 X4.2534 Y0.774
N3435 X4.2469 Y0.7232
N3440 X4.2418 Y0.6722
N3445 X4.2378 Y0.621
N3450 X4.2346 Y0.5699
N3455 X4.2321 Y0.5187
N3460 X4.2275 Y0.4676
N3465 X4.2098 Y0.4195
N3470 X4.1821 Y0.3764
N3475 X4.1472 Y0.3388
N3480 X4.1072 Y0.3067
N3485 X4.0637 Y0.2796
N3490 X4.0177 Y0.2569
N3495 X3.97 Y0.238
N3500 X3.9212 Y0.2224
N3505 X3.8716 Y0.2095
N3510 X3.8214 Y0.1989
N3515 X3.7709 Y0.1902
N3520 X3.7201 Y0.1831
N3525 X3.6692 Y0.1773
N3530 X3.6181 Y0.1726
N3535 X3.5906 Y0.1705
N3540 X3.5852 Y0.17
N3545 X3.5798 Y0.1691
N3550 X3.5745 Y0.1679
N3555 X3.5445 Y0.1638
N3560 X3.5295 Y0.1634
N3565 X3.4784 Y0.1601
N3570 X3.4633 Y0.1585
N3575 X3.4486 Y0.1546
N3580 X3.4348 Y0.1485
N3585 X3.422 Y0.1403
N3590 X3.4107 Y0.1303
N3595 X3.401 Y0.1186
N3600 G3 X3.4554 Y0.0428 I0.0419 J-0.0273
N3605 G1 X3.541 Y0.065
N3610 G3 X3.5486 Y0.1591 I-0.0125 J0.0484
N3615 X3.5295 Y0.1634 I-0.0201 J-0.0458 F15.
N3620 G1 X3.5145 Y0.1631 F30.
N3625 X3.4995 Y0.1632
N3630 X3.4845 Y0.1635
N3635 X3.4695 Y0.1638
N3640 X3.4545 Y0.1644
N3645 X3.447 Y0.1632
N3650 X3.4396 Y0.1608
N3655 X3.4334 Y0.1578
N3660 X3.4273 Y0.1537
N3665 X3.4246 Y0.1513
N3670 X3.4187 Y0.145
N3675 X3.4145 Y0.1387
N3680 X3.4046 Y0.1237
N3685 X3.394 Y0.1087
N3690 X3.3796 Y0.0885
N3695 X3.3715 Y0.0787
N3700 X3.3585 Y0.0637
N3705 X3.3496 Y0.0543
N3710 X3.3429 Y0.0487
N3715 X3.3246 Y0.0337
N3720 X3.3196 Y0.0298
N3725 X3.3045 Y0.0188
N3730 X3.2896 Y0.008
N3735 X3.2831 Y0.0038
N3740 X3.2568 Y-0.0112
N3745 X3.2446 Y-0.0171
N3750 X3.2206 Y-0.0262
N3755 X3.2146 Y-0.0282
N3760 X3.1914 Y-0.0358
N3765 X3.1905 Y-0.0362
N3770 G2 X3.1757 Y-0.0475 I-0.3899 J0.4998
N3775 X3.1455 Y-0.0683 I-0.3751 J0.5111
N3780 X3.1243 Y-0.076 I-0.0272 J0.042
N3785 G1 X2.614 Y-0.1373
N3790 G2 X2.5915 Y-0.1349 I-0.006 J0.0496
N3795 X2.5579 Y-0.1221 I0.2091 J0.5984
N3800 X2.5402 Y-0.1144 I0.2427 J0.5856 F15.
N3805 G1 X2.5399 Y-0.1143
N3810 X2.5249 Y-0.1098 F30.
N3815 X2.5099 Y-0.1052
N3820 X2.4799 Y-0.095
N3825 X2.4649 Y-0.0883
N3830 X2.4499 Y-0.0811
N3835 X2.4349 Y-0.0722
N3840 X2.4199 Y-0.0624
N3845 X2.411 Y-0.0562
N3850 X2.3749 Y-0.0288
N3855 X2.3719 Y-0.0262
N3860 X2.3599 Y-0.014
N3865 X2.3471 Y-0.002
N3870 X2.3279 Y0.0133
N3875 X2.3193 Y0.0191
N3880 X2.3057 Y0.027
N3885 X2.2912 Y0.033
N3890 X2.276 Y0.0369
N3895 G3 X2.2413 Y-0.0545 I-0.0077 J-0.0494
N3900 G1 X2.2957 Y-0.0895
N3905 G3 X2.3699 Y-0.0308 I0.027 J0.0421
N3910 X2.3599 Y-0.014 I-0.0471 J-0.0167 F15.
N3915 G1 X2.3428 Y0.0038 F30.
N3920 X2.3299 Y0.0186
N3925 X2.3224 Y0.0245
N3930 X2.315 Y0.0284
N3935 X2.3075 Y0.0309
N3940 X2.3 Y0.0324
N3945 X2.24 Y0.0438
N3950 X2.225 Y0.047
N3955 X2.21 Y0.0504
N3960 X2.195 Y0.0541
N3965 X2.09 Y0.0853
N3970 X2.0402 Y0.0975
N3975 X1.9902 Y0.1088
N3980 X1.9397 Y0.1177
N3985 X1.889 Y0.1248
N3990 X1.838 Y0.1304
N3995 X1.7869 Y0.1349
N4000 X1.7358 Y0.1385
N4005 X1.6846 Y0.1413
N4010 X1.6334 Y0.1436
N4015 X1.5821 Y0.1454
N4020 X1.5309 Y0.1468
N4025 X1.4796 Y0.148
N4030 X1.4283 Y0.1489
N4035 X1.3771 Y0.1496
N4040 X1.3258 Y0.1502
N4045 X1.2745 Y0.1507
N4050 X1.2233 Y0.151
N4055 X1.172 Y0.1513
N4060 X1.1207 Y0.1516
N4065 X1.0182 Y0.1519
N4070 X0.9156 Y0.1521
N4075 X0.7618 Y0.1523
N4080 X0.7105
N4085 X0.6593 Y0.1545
N4090 X0.6109 Y0.1714
N4095 X0.5678 Y0.1992
N4100 X0.5306 Y0.2344
N4105 X0.499 Y0.2748
N4110 X0.4724 Y0.3187
N4115 X0.4504 Y0.365
N4120 X0.4321 Y0.4129
N4125 X0.4171 Y0.4619
N4130 X0.4048 Y0.5117
N4135 X0.3948 Y0.562
N4140 X0.3867 Y0.6126
N4145 X0.38 Y0.6634
N4150 X0.3754 Y0.7072
N4155 X0.3721 Y0.7251
N4160 X0.3661 Y0.7422
N4165 X0.3574 Y0.7582
N4170 X0.3464 Y0.7727
N4175 X0.3333 Y0.7853
N4180 X0.3174 Y0.7982
N4185 X0.281 Y0.8282
N4190 X0.2757 Y0.8332
N4195 X0.2653 Y0.8432
N4200 X0.2607 Y0.8477
N4205 X0.1857 Y0.9268
N4210 X0.1707 Y0.9428
N4215 X0.1664 Y0.9481
N4220 X0.1434 Y0.9781
N4225 X0.1315 Y0.9944
N4230 X0.1311 Y0.9948
N4235 G2 X0.1172 Y1.0079 I0.6803 J0.735
N4240 X-0.1158 Y1.3512 I0.6942 J0.7219
N4245 X-0.1194 Y1.3669 I0.0463 J0.0189
N4250 G1 X-0.1582 Y1.9708
N4255 G2 X-0.1566 Y1.9868 I0.0499 J0.0032
N4260 X0.0306 Y2.357 I0.968 J-0.257
N4265 X0.0427 Y2.3718 I0.7808 J-0.6272 F15.
N4270 G1 X0.043 Y2.3722
N4275 X0.0513 Y2.3872 F30.
N4280 X0.0598 Y2.4022
N4285 X0.078 Y2.4322
N4290 X0.0808 Y2.4363
N4295 X0.1107 Y2.4773
N4300 X0.1326 Y2.5071
N4305 X0.1557 Y2.5384
N4310 X0.1664 Y2.5521
N4315 X0.1707 Y2.557
N4320 X0.1802 Y2.5671
N4325 X0.2023 Y2.5933
N4330 X0.2192 Y2.6169
N4335 X0.2369 Y2.6464
N4340 X0.2555 Y2.684
N4345 X0.2746 Y2.7316
N4350 X0.2898 Y2.7806
N4355 X0.302 Y2.8304
N4360 X0.3118 Y2.8807
N4365 X0.3197 Y2.9314
N4370 X0.326 Y2.9822
N4375 X0.3311 Y3.0333
N4380 X0.3353 Y3.0844
N4385 X0.3386 Y3.1355
N4390 X0.3469 Y3.1861
N4395 X0.3655 Y3.2339
N4400 X0.3928 Y3.2773
N4405 X0.4268 Y3.3157
N4410 X0.4658 Y3.349
N4415 X0.5083 Y3.3776
N4420 X0.5535 Y3.402
N4425 X0.6004 Y3.4225
N4430 X0.6487 Y3.4398
N4435 X0.6979 Y3.4542
N4440 X0.7478 Y3.4662
N4445 X0.7981 Y3.4762
N4450 X0.8487 Y3.4844
N4455 X0.8995 Y3.4912
N4460 X0.9504 Y3.4969
N4465 X1.0015 Y3.5015
N4470 X1.0526 Y3.5053
N4475 X1.1038 Y3.5084
N4480 X1.155 Y3.511
N4485 X1.2062 Y3.5131
N4490 X1.2575 Y3.5148
N4495 X1.3087 Y3.5163
N4500 X1.36 Y3.5174
N4505 X1.4113 Y3.5184
N4510 X1.4625 Y3.5191
N4515 X1.5138 Y3.5197
N4520 X1.5651 Y3.5203
N4525 X1.6163 Y3.5207
N4530 X1.6676 Y3.521
N4535 X1.7189 Y3.5213
N4540 X1.7701 Y3.5215
N4545 X1.8214 Y3.5219
N4550 X1.8568 Y3.5232
N4555 X1.875 Y3.5253
N4560 X1.8926 Y3.5302
N4565 X1.9092 Y3.5378
N4570 X1.9245 Y3.5479
N4575 X1.938 Y3.5603
N4580 X1.9493 Y3.5746
N4585 X1.9583 Y3.5905
N4590 X1.9634 Y3.6014
N4595 X1.9701 Y3.6137
N4600 X1.98 Y3.6314
N4605 X1.9851 Y3.6402
N4610 X2.0001 Y3.6618
N4615 X2.0313 Y3.7063
N4620 X2.0429 Y3.7213
N4625 X2.06 Y3.742
N4630 X2.0683 Y3.7513
N4635 X2.0736 Y3.7566
N4640 X2.074 Y3.7572
N4645 G2 X2.0834 Y3.7735 I0.529 J-0.2932
N4650 X2.2915 Y3.9824 I0.5196 J-0.3096
N4655 X2.3123 Y3.9893 I0.0258 J-0.0429
N4660 G1 X2.7833 Y4.0367
N4665 G2 X2.805 Y4.0341 I0.005 J-0.0497
N4670 X3.0504 Y3.8709 I-0.2019 J-0.5701
N4675 X3.063 Y3.8567 I-0.4474 J-0.407 F15.
N4680 G1 X3.0635 Y3.8562
N4685 X3.0849 Y3.8413 F30.
N4690 X3.0947 Y3.8339
N4695 X3.1097 Y3.8222
N4700 X3.1216 Y3.8113
N4705 X3.1247 Y3.8083
N4710 X3.1846 Y3.7483
N4715 X3.1958 Y3.7363
N4720 X3.1996 Y3.7316
N4725 X3.2076 Y3.7213
N4730 X3.215 Y3.7126
N4735 X3.2307 Y3.6969
N4740 X3.2503 Y3.6802
N4745 X3.2751 Y3.6623
N4750 X3.3061 Y3.6436
N4755 X3.345 Y3.6241
N4760 X3.3926 Y3.6049
N4765 X3.4414 Y3.5894
N4770 X3.4911 Y3.5768
N4775 X3.5414 Y3.5666
N4780 X3.592 Y3.5583
N4785 X3.6428 Y3.5516
N4790 X3.6928 Y3.5401
N4795 X3.7397 Y3.5193
N4800 X3.7821 Y3.4905
N4805 X3.8196 Y3.4556
N4810 X3.8522 Y3.416
N4815 X3.8801 Y3.373
N4820 X3.904 Y3.3276
N4825 X3.9241 Y3.2804
N4830 X3.941 Y3.232
N4835 X3.9551 Y3.1828
N4840 X3.9669 Y3.1329
N4845 X3.9767 Y3.0825
N4850 X3.9848 Y3.0319
N4855 X3.9916 Y2.9811
N4860 X3.9971 Y2.9301
N4865 X4.0017 Y2.879
N4870 X4.0033 Y2.8573
N4875 X4.0058 Y2.8405
N4880 X4.0107 Y2.8242
N4885 X4.0179 Y2.8088
N4890 X4.0273 Y2.7946
N4895 X4.0409 Y2.777
N4900 X4.0522 Y2.762
N4905 X4.0629 Y2.747
N4910 X4.0693 Y2.7372
N4915 X4.1294 Y2.642
N4920 X4.1387 Y2.627
N4925 X4.1556 Y2.5971
N4930 X4.1593 Y2.5901
N4935 X4.2089 Y2.4921
N4940 X4.2164 Y2.4771
N4945 X4.2297 Y2.4463
N4950 G3 X4.2308 Y2.445 I0.0028 J0.0013
N4955 G2 X4.2456 Y2.4349 I-0.494 J-0.7384
N4960 X4.4535 Y2.2315 I-0.5088 J-0.7283
N4965 X4.463 Y2.2065 I-0.0403 J-0.0295
N4970 G1 X4.5406 Y1.3446
N4975 G2 X4.5358 Y1.3182 I-0.0498 J-0.0045
N4980 X4.3684 Y1.0819 I-0.799 J0.3884
N4985 X4.3548 Y1.0684 I-0.6316 J0.6247 F15.
N4990 G1 X4.3545 Y1.0681
N4995 X4.3433 Y1.0531 F30.
N5000 X4.3242 Y1.0294
N5005 X4.3185 Y1.0231
N5010 X4.3092 Y1.0149
N5015 X4.2942 Y1.0016
N5020 X4.2833 Y0.9931
N5025 X4.2793 Y0.9902
N5030 X4.2623 Y0.9781
N5035 X4.2493 Y0.9691
N5040 X4.2405 Y0.9631
N5045 X4.2343 Y0.9592
N5050 X4.228 Y0.9546
N5055 X4.2245 Y0.9514
N5060 X4.2217 Y0.9481
N5065 X4.2193 Y0.9449
N5070 X4.2158 Y0.939
N5075 X4.2133 Y0.9332
N5080 X4.2113 Y0.9257
N5085 X4.2105 Y0.9182
N5090 X4.2112 Y0.9032
N5095 X4.2119 Y0.8732
N5100 X4.2118 Y0.8582
N5105 X4.2117 Y0.8432
N5110 X4.2108 Y0.8282
N5115 X4.2088 Y0.8132
N5120 X4.2064 Y0.7982
N5125 X4.1985 Y0.7683
N5130 X4.1937 Y0.7533
N5135 X4.1889 Y0.7383
N5140 X4.1832 Y0.7233
N5145 X4.1743 Y0.7022
N5150 X4.1699 Y0.6933
N5155 X4.1612 Y0.6783
N5160 X4.1593 Y0.6754
N5165 X4.1511 Y0.6633
N5170 X4.1293 Y0.6333
N5175 X4.1173 Y0.6184
N5180 X4.1143 Y0.6147
N5185 X4.1035 Y0.6034
N5190 X4.0993 Y0.5992
N5195 X4.0866 Y0.5884
N5200 X4.0673 Y0.5734
N5205 X4.0543 Y0.5636
N5210 X4.0469 Y0.5584
N5215 X4.0249 Y0.5434
N5220 X4.0243 Y0.5431
N5225 X3.9801 Y0.5171
N5230 X3.9356 Y0.4917
N5235 X3.9207 Y0.4846
N5240 X3.907 Y0.477
N5245 X3.8945 Y0.4675
N5250 X3.8833 Y0.4564
N5255 X3.8737 Y0.4439
N5260 X3.8659 Y0.4303
N5265 X3.86 Y0.4157
N5270 G3 X3.9366 Y0.3608 I0.048 J-0.014
N5275 G1 X4.0745 Y0.4569
N5280 G3 X4.0433 Y0.5479 I-0.0286 J0.041
N5285 X4.0243 Y0.5431 I0.0026 J-0.0499 F15.
N5290 G1 X3.9944 Y0.5275 F30.
N5295 X3.9794 Y0.522
N5300 X3.9644 Y0.5167
N5305 X3.9547 Y0.5134
N5310 X3.9344 Y0.5072
N5315 X3.9194 Y0.5027
N5320 X3.9044 Y0.4984
N5325 X3.8969 Y0.4946
N5330 X3.8931 Y0.4921
N5335 X3.8894 Y0.4889
N5340 X3.8842 Y0.4835
N5345 X3.8814 Y0.4797
N5350 X3.8791 Y0.476
N5355 X3.8757 Y0.4685
N5360 X3.8744 Y0.4641
N5365 X3.8716 Y0.4535
N5370 X3.8625 Y0.4235
N5375 X3.8594 Y0.4139
N5380 X3.8523 Y0.3935
N5385 X3.8462 Y0.3785
N5390 X3.8386 Y0.3635
N5395 X3.8305 Y0.3485
N5400 X3.8203 Y0.3335
N5405 X3.8144 Y0.3248
N5410 X3.8099 Y0.3186
N5415 X3.7984 Y0.3036
N5420 X3.7844 Y0.2854
N5425 X3.7737 Y0.2736
N5430 X3.7694 Y0.2693
N5435 X3.7577 Y0.2586
N5440 X3.7544 Y0.2558
N5445 X3.7394 Y0.2441
N5450 X3.7182 Y0.2286
N5455 X3.7095 Y0.2223
N5460 X3.6966 Y0.2136
N5465 X3.6795 Y0.2038
N5470 X3.6678 Y0.1986
N5475 X3.6495 Y0.1907
N5480 X3.6345 Y0.1854
N5485 X3.6195 Y0.1805
N5490 X3.6045 Y0.176
N5495 X3.5758 Y0.1682
N5500 X3.5745 Y0.1679
N5505 G3 X3.5731 Y0.167 I0.0009 J-0.003
N5510 G2 X3.5611 Y0.1537 I-0.7818 J0.6935
N5515 X3.2068 Y-0.0984 I-0.7698 J0.7068
N5520 X3.1896 Y-0.1025 I-0.0199 J0.0459
N5525 G1 X2.502 Y-0.1407
N5530 G2 X2.4846 Y-0.1386 I-0.0028 J0.0499
N5535 X2.1049 Y0.0725 I0.3067 J0.999
N5540 X2.0911 Y0.0847 I0.6864 J0.788 F15.
N5545 G3 X2.09 Y0.0853 I-0.0021 J-0.0023
N5550 G1 X2.06 Y0.0943 F30.
N5555 X2.0451 Y0.099
N5560 X2.0301 Y0.1047
N5565 X2.0151 Y0.1108
N5570 X1.9101 Y0.1537
N5575 X1.8951 Y0.16
N5580 X1.8651 Y0.1744
N5585 X1.8501 Y0.1821
N5590 X1.7602 Y0.23
N5595 X1.7452 Y0.238
N5600 X1.705 Y0.2584
N5605 X1.6608 Y0.2765
N5610 X1.6119 Y0.2921
N5615 X1.5622 Y0.3044
N5620 X1.5118 Y0.3142
N5625 X1.4612 Y0.3219
N5630 X1.4103 Y0.3281
N5635 X1.3592 Y0.333
N5640 X1.3081 Y0.3369
N5645 X1.2569 Y0.3401
N5650 X1.2057 Y0.3425
N5655 X1.1545 Y0.3445
N5660 X1.1032 Y0.3461
N5665 X1.052 Y0.3474
N5670 X1.0007 Y0.3484
N5675 X0.9494 Y0.3492
N5680 X0.8983 Y0.3523
N5685 X0.8491 Y0.3669
N5690 X0.8042 Y0.3915
N5695 X0.7643 Y0.4238
N5700 X0.7297 Y0.4616
N5705 X0.7 Y0.5034
N5710 X0.6748 Y0.548
N5715 X0.6711 Y0.5556
N5720 X0.6632 Y0.5696
N5725 X0.6534 Y0.5823
N5730 X0.6419 Y0.5936
N5735 X0.6291 Y0.6031
N5740 X0.615 Y0.6109
N5745 X0.5456 Y0.643
N5750 X0.5354 Y0.6483
N5755 X0.5092 Y0.6633
N5760 X0.5006 Y0.6685
N5765 X0.4256 Y0.7154
N5770 X0.4135 Y0.7233
N5775 X0.3956 Y0.7351
N5780 X0.3912 Y0.7383
N5785 X0.3724 Y0.7533
N5790 X0.3333 Y0.7853
N5795 G3 X0.3158 Y0.7938 I-0.0303 J-0.0398
N5800 G1 X0.3103 Y0.7953 Z-0.1743
N5805 X0.305 Y0.7967 Z-0.1734
N5810 X0.2998 Y0.7981 Z-0.1718
N5815 X0.2948 Y0.7994 Z-0.1697
N5820 X0.29 Y0.8006 Z-0.1669
N5825 X0.2856 Y0.8018 Z-0.1637
N5830 X0.2816 Y0.8029 Z-0.16
N5835 X0.278 Y0.8038 Z-0.1558
N5840 X0.2748 Y0.8046 Z-0.1512
N5845 X0.2722 Y0.8053 Z-0.1463
N5850 X0.2701 Y0.8059 Z-0.1411
N5855 X0.2686 Y0.8063 Z-0.1357
N5860 X0.2677 Y0.8065 Z-0.1302
N5865 X0.2674 Y0.8066 Z-0.1246
N5870 G0 Z0.375
N5875 X1.7834 Y0.1803
N5880 Z-0.0746
N5885 G1 Z-0.1246 F15.
N5890 X1.7832 Y0.1806 Z-0.1302
N5895 X1.7827 Y0.1814 Z-0.1357
N5900 X1.782 Y0.1827 Z-0.1411
N5905 X1.7809 Y0.1846 Z-0.1463
N5910 X1.7796 Y0.187 Z-0.1512
N5915 X1.778 Y0.1898 Z-0.1558
N5920 X1.7762 Y0.193 Z-0.16
N5925 X1.7741 Y0.1967 Z-0.1637
N5930 X1.7719 Y0.2007 Z-0.1669
N5935 X1.7694 Y0.2049 Z-0.1697
N5940 X1.7669 Y0.2094 Z-0.1718
N5945 X1.7642 Y0.2141 Z-0.1734
N5950 X1.7615 Y0.2189 Z-0.1743
N5955 X1.7588 Y0.2238 Z-0.1746
N5960 G3 X1.7452 Y0.238 I-0.0344 J-0.0195
N5965 G1 X1.7302 Y0.2466 F30.
N5970 X1.7152 Y0.2555
N5975 X1.5983 Y0.3335
N5980 X1.5952 Y0.3356
N5985 X1.5587 Y0.3635
N5990 X1.5223 Y0.3935
N5995 X1.4933 Y0.415
N6000 X1.4651 Y0.4327
N6005 X1.4294 Y0.4511
N6010 X1.3835 Y0.4704
N6015 X1.3348 Y0.4864
N6020 X1.2851 Y0.4992
N6025 X1.2608 Y0.5042
N6030 X1.2502 Y0.5059
N6035 X1.2396 Y0.5065
N6040 X1.2289 Y0.5063
N6045 G3 X1.2159 Y0.41 I0.0054 J-0.0497
N6050 G1 X1.4708 Y0.3095
N6055 G3 X1.5341 Y0.378 I0.0183 J0.0465
N6060 X1.5223 Y0.3935 I-0.0449 J-0.022 F15.
N6065 G1 X1.4676 Y0.4385 F30.
N6070 X1.4603 Y0.4446
N6075 X1.4453 Y0.4575
N6080 X1.4303 Y0.4723
N6085 X1.4153 Y0.4873
N6090 X1.4003 Y0.5024
N6095 X1.3884 Y0.5134
N6100 X1.3853 Y0.5155
N6105 X1.3778 Y0.5193
N6110 X1.3703 Y0.5216
N6115 X1.3628 Y0.5228
N6120 X1.3553 Y0.5229
N6125 X1.3403 Y0.5203
N6130 X1.3253 Y0.5173
N6135 X1.2953 Y0.512
N6140 X1.2803 Y0.5102
N6145 X1.2503 Y0.5078
N6150 X1.1754 Y0.5024
N6155 X1.1454 Y0.5005
N6160 X1.1304 Y0.5004
N6165 X1.1154 Y0.5009
N6170 X1.1004 Y0.5015
N6175 X1.0254 Y0.5056
N6180 X0.9954 Y0.5072
N6185 X0.9804 Y0.5089
N6190 X0.9654 Y0.511
N6195 X0.9504 Y0.5133
N6200 X0.8455 Y0.5324
N6205 X0.8305 Y0.5358
N6210 X0.8155 Y0.5396
N6215 X0.8014 Y0.5434
N6220 X0.6955 Y0.5769
N6225 X0.6805 Y0.5824
N6230 X0.6653 Y0.5884
N6235 X0.6505 Y0.5944
N6240 X0.615 Y0.6109
N6245 G3 X0.5959 Y0.6148 I-0.0194 J-0.0461
N6250 G1 X0.5903 Z-0.1743
N6255 X0.5848 Z-0.1734
N6260 X0.5794 Y0.6149 Z-0.1718
N6265 X0.5742 Z-0.1697
N6270 X0.5693 Z-0.1669
N6275 X0.5647 Z-0.1637
N6280 X0.5605 Y0.615 Z-0.16
N6285 X0.5568 Z-0.1558
N6290 X0.5535 Z-0.1512
N6295 X0.5508 Z-0.1463
N6300 X0.5487 Z-0.1411
N6305 X0.5471 Z-0.1357
N6310 X0.5462 Z-0.1302
N6315 X0.5459 Z-0.1246
N6320 G0 Z0.375
N6325 X0.1152 Y2.5431
N6330 Z-0.0746
N6335 G1 Z-0.1246 F15.
N6340 X0.1155 Y2.5432 Z-0.1302
N6345 X0.1164 Y2.5435 Z-0.1357
N6350 X0.1179 Y2.5439 Z-0.1411
N6355 X0.12 Y2.5445 Z-0.1463
N6360 X0.1226 Y2.5453 Z-0.1512
N6365 X0.1257 Y2.5462 Z-0.1558
N6370 X0.1293 Y2.5472 Z-0.16
N6375 X0.1333 Y2.5484 Z-0.1637
N6380 X0.1377 Y2.5497 Z-0.1669
N6385 X0.1424 Y2.551 Z-0.1697
N6390 X0.1474 Y2.5525 Z-0.1718
N6395 X0.1526 Y2.554 Z-0.1734
N6400 X0.1579 Y2.5555 Z-0.1743
N6405 X0.1633 Y2.5571 Z-0.1746
N6410 G3 X0.1802 Y2.5671 I-0.011 J0.038
N6415 G1 X0.1942 Y2.5821 F30.
N6420 X0.2457 Y2.6365
N6425 X0.2653 Y2.657
N6430 X0.2757 Y2.6669
N6435 X0.2813 Y2.672
N6440 X0.3057 Y2.6921
N6445 X0.336 Y2.717
N6450 X0.3611 Y2.7396
N6455 X0.3779 Y2.7576
N6460 X0.396 Y2.7803
N6465 X0.4149 Y2.8081
N6470 X0.4347 Y2.8432
N6475 X0.4553 Y2.8878
N6480 X0.473 Y2.9359
N6485 X0.4922 Y2.9834
N6490 X0.5172 Y3.0282
N6495 X0.548 Y3.0692
N6500 X0.5837 Y3.106
N6505 X0.6233 Y3.1385
N6510 X0.666 Y3.1668
N6515 X0.7111 Y3.1913
N6520 X0.7579 Y3.2123
N6525 X0.806 Y3.2301
N6530 X0.8549 Y3.2453
N6535 X0.9046 Y3.2581
N6540 X0.9547 Y3.2689
N6545 X1.0052 Y3.2779
N6550 X1.0559 Y3.2855
N6555 X1.1068 Y3.2918
N6560 X1.1578 Y3.2971
N6565 X1.2089 Y3.3015
N6570 X1.26 Y3.3051
N6575 X1.3112 Y3.3081
N6580 X1.3624 Y3.3106
N6585 X1.4136 Y3.3127
N6590 X1.4649 Y3.3144
N6595 X1.5161 Y3.3159
N6600 X1.5674 Y3.317
N6605 X1.6186 Y3.318
N6610 X1.6699 Y3.3192
N6615 X1.7211 Y3.3212
N6620 X1.7722 Y3.3256
N6625 X1.8014 Y3.3302
N6630 X1.8178 Y3.334
N6635 X1.8334 Y3.3402
N6640 X1.848 Y3.3486
N6645 X1.8612 Y3.3591
N6650 X1.8727 Y3.3713
N6655 X1.8823 Y3.3851
N6660 X1.8899 Y3.4002
N6665 X1.8951 Y3.4162
N6670 X1.8965 Y3.4215
N6675 X1.9045 Y3.4515
N6680 X1.9127 Y3.4815
N6685 X1.9169 Y3.4965
N6690 X1.9223 Y3.5115
N6695 X1.9251 Y3.5186
N6700 X1.9285 Y3.5265
N6705 X1.9401 Y3.5514
N6710 X1.9583 Y3.5905
N6715 G3 X1.9623 Y3.6096 I-0.046 J0.0195
N6720 G1 X1.9624 Y3.6152 Z-0.1743
N6725 Y3.6207 Z-0.1734
N6730 X1.9625 Y3.6261 Z-0.1718
N6735 Y3.6313 Z-0.1697
N6740 X1.9626 Y3.6362 Z-0.1669
N6745 Y3.6408 Z-0.1637
N6750 Y3.645 Z-0.16
N6755 X1.9627 Y3.6487 Z-0.1558
N6760 Y3.6519 Z-0.1512
N6765 Y3.6546 Z-0.1463
N6770 Y3.6568 Z-0.1411
N6775 Y3.6583 Z-0.1357
N6780 X1.9628 Y3.6593 Z-0.1302
N6785 Y3.6596 Z-0.1246
N6790 G0 Z0.375
N6795 X3.1946 Y3.7893
N6800 Z-0.0746
N6805 G1 Z-0.1246 F15.
N6810 Y3.789 Z-0.1302
N6815 X3.1948 Y3.7881 Z-0.1357
N6820 X3.1949 Y3.7865 Z-0.1411
N6825 X3.1952 Y3.7844 Z-0.1463
N6830 X3.1955 Y3.7817 Z-0.1512
N6835 X3.1959 Y3.7785 Z-0.1558
N6840 X3.1963 Y3.7748 Z-0.16
N6845 X3.1968 Y3.7706 Z-0.1637
N6850 X3.1974 Y3.7661 Z-0.1669
N6855 X3.198 Y3.7612 Z-0.1697
N6860 X3.1986 Y3.756 Z-0.1718
N6865 X3.1992 Y3.7507 Z-0.1734
N6870 X3.1999 Y3.7452 Z-0.1743
N6875 X3.2005 Y3.7396 Z-0.1746
N6880 G3 X3.2076 Y3.7213 I0.0393 J0.0047
N6885 G1 X3.2146 Y3.7122 F30.
N6890 X3.2446 Y3.6693
N6895 X3.2606 Y3.6464
N6900 X3.2706 Y3.6314
N6905 X3.2787 Y3.6164
N6910 X3.2866 Y3.6014
N6915 X3.2896 Y3.5949
N6920 X3.2982 Y3.5786
N6925 X3.3078 Y3.5636
N6930 X3.3202 Y3.5471
N6935 X3.3357 Y3.5297
N6940 X3.3552 Y3.5111
N6945 X3.3795 Y3.4913
N6950 X3.409 Y3.471
N6955 X3.4535 Y3.4454
N6960 X3.4979 Y3.4198
N6965 X3.5397 Y3.3902
N6970 X3.5782 Y3.3563
N6975 X3.6128 Y3.3185
N6980 X3.6436 Y3.2774
N6985 X3.6705 Y3.2338
N6990 X3.6939 Y3.1882
N6995 X3.7141 Y3.1411
N7000 X3.7145 Y3.1398
N7005 X3.7203 Y3.1263
N7010 X3.7277 Y3.1137
N7015 X3.7367 Y3.1021
N7020 X3.747 Y3.0917
N7025 X3.8147 Y3.0318
N7030 X3.8315 Y3.0168
N7035 X3.8444 Y3.005
N7040 X3.8594 Y2.9897
N7045 X3.9462 Y2.8969
N7050 X3.9494 Y2.8933
N7055 X3.9714 Y2.8669
N7060 X3.9794 Y2.8567
N7065 X4.0273 Y2.7946
N7070 G3 X4.1025 Y2.8605 I0.0385 J0.0319
N7075 G1 X3.3723 Y3.6484
N7080 G3 X3.2856 Y3.614 I-0.0367 J-0.034
N7085 X3.2896 Y3.5949 I0.05 J0.0004 F15.
N7090 G1 X3.3196 Y3.5306 F30.
N7095 X3.3213 Y3.5265
N7100 X3.3329 Y3.4965
N7105 X3.3346 Y3.4915
N7110 X3.3415 Y3.4665
N7115 X3.3455 Y3.4515
N7120 X3.3544 Y3.424
N7125 X3.3739 Y3.3767
N7130 X3.3867 Y3.3508
N7135 X3.3943 Y3.3377
N7140 X3.4036 Y3.3258
N7145 X3.4143 Y3.3151
N7150 X3.4264 Y3.306
N7155 X3.4396 Y3.2986
N7160 G3 X3.5054 Y3.3679 I0.0224 J0.0447
N7165 G1 X3.4377 Y3.4874
N7170 G3 X3.3449 Y3.471 I-0.0435 J-0.0247
N7175 X3.3455 Y3.4515 I0.0493 J-0.0083 F15.
N7180 G1 X3.3535 Y3.4215 F30.
N7185 X3.361 Y3.3915
N7190 X3.3641 Y3.3766
N7195 X3.3646 Y3.3736
N7200 X3.3662 Y3.3616
N7205 X3.3674 Y3.3541
N7210 X3.3698 Y3.3466
N7215 X3.3736 Y3.3391
N7220 X3.3792 Y3.3316
N7225 X3.3796 Y3.3312
N7230 X3.3833 Y3.3275
N7235 X3.3871 Y3.3245
N7240 X3.3908 Y3.3221
N7245 X3.3946 Y3.32
N7250 X3.4096 Y3.3129
N7255 X3.4246 Y3.3058
N7260 X3.4396 Y3.2986
N7265 X3.4545 Y3.2904
N7270 X3.4845 Y3.273
N7275 X3.5595 Y3.2284
N7280 X3.5895 Y3.2098
N7285 X3.6045 Y3.1996
N7290 X3.7112 Y3.1217
N7295 X3.7245 Y3.1107
N7300 X3.7459 Y3.0926
N7305 X3.747 Y3.0917
N7310 G3 X3.7642 Y3.0825 I0.0318 J0.0386
N7315 G1 X3.7696 Y3.0808 Z-0.1743
N7320 X3.7748 Y3.0792 Z-0.1734
N7325 X3.78 Y3.0776 Z-0.1718
N7330 X3.785 Y3.0761 Z-0.1697
N7335 X3.7896 Y3.0747 Z-0.1669
N7340 X3.794 Y3.0733 Z-0.1637
N7345 X3.798 Y3.0721 Z-0.16
N7350 X3.8016 Y3.071 Z-0.1558
N7355 X3.8047 Y3.0701 Z-0.1512
N7360 X3.8073 Y3.0693 Z-0.1463
N7365 X3.8093 Y3.0686 Z-0.1411
N7370 X3.8108 Y3.0682 Z-0.1357
N7375 X3.8117 Y3.0679 Z-0.1302
N7380 X3.812 Y3.0678 Z-0.1246
N7385 G0 Z0.375
N7390 X0.2685 Y2.7019
N7395 Z-0.0746
N7400 G1 Z-0.1246 F15.
N7405 X0.2688 Z-0.1302
N7410 X0.2698 Y2.7021 Z-0.1357
N7415 X0.2713 Y2.7023 Z-0.1411
N7420 X0.2734 Y2.7026 Z-0.1463
N7425 X0.2761 Y2.703 Z-0.1512
N7430 X0.2793 Y2.7035 Z-0.1558
N7435 X0.283 Y2.7041 Z-0.16
N7440 X0.2871 Y2.7047 Z-0.1637
N7445 X0.2917 Y2.7054 Z-0.1669
N7450 X0.2965 Y2.7061 Z-0.1697
N7455 X0.3016 Y2.7069 Z-0.1718
N7460 X0.307 Y2.7077 Z-0.1734
N7465 X0.3124 Y2.7085 Z-0.1743
N7470 X0.318 Y2.7093 Z-0.1746
N7475 G3 X0.336 Y2.717 I-0.0059 J0.0391
N7480 G1 X0.3544 Y2.732 F30.
N7485 X0.3915 Y2.762
N7490 X0.3956 Y2.7651
N7495 X0.4106 Y2.775
N7500 X0.4256 Y2.7845
N7505 X0.5006 Y2.8315
N7510 X0.5093 Y2.8369
N7515 X0.5156 Y2.8408
N7520 X0.5306 Y2.8494
N7525 X0.5746 Y2.8757
N7530 X0.6184 Y2.9023
N7535 X0.6628 Y2.928
N7540 X0.7081 Y2.952
N7545 X0.7544 Y2.974
N7550 X0.8017 Y2.9939
N7555 X0.8498 Y3.0116
N7560 X0.8986 Y3.0273
N7565 X0.948 Y3.041
N7570 X0.9979 Y3.053
N7575 X1.0481 Y3.0634
N7580 X1.0985 Y3.0723
N7585 X1.1492 Y3.08
N7590 X1.2001 Y3.0866
N7595 X1.251 Y3.0922
N7600 X1.3021 Y3.097
N7605 X1.3532 Y3.1011
N7610 X1.4044 Y3.1045
N7615 X1.4555 Y3.1075
N7620 X1.4882 Y3.1092
N7625 X1.5062 Y3.1115
N7630 X1.5235 Y3.1166
N7635 X1.5398 Y3.1243
N7640 X1.5548 Y3.1344
N7645 X1.5578 Y3.1367
N7650 X1.6423 Y3.1967
N7655 X1.6702 Y3.2164
N7660 X1.6868 Y3.2267
N7665 X1.7002 Y3.2348
N7670 X1.7751 Y3.2785
N7675 X1.7901 Y3.2871
N7680 X1.8201 Y3.3036
N7685 X1.8351 Y3.3108
N7690 X1.8501 Y3.3178
N7695 X1.8576 Y3.3215
N7700 X1.8614 Y3.3238
N7705 X1.8651 Y3.3266
N7710 X1.8704 Y3.3316
N7715 X1.8762 Y3.3391
N7720 X1.8801 Y3.3466
N7725 X1.8826 Y3.3541
N7730 X1.8838 Y3.3616
N7735 X1.885 Y3.3698
N7740 G3 X1.8182 Y3.4221 I-0.0497 J0.0052
N7745 G1 X0.4917 Y2.9413
N7750 G3 X0.5117 Y2.8444 I0.017 J-0.047
N7755 X0.5306 Y2.8494 I-0.003 J0.0499 F15.
N7760 G1 X0.5354 Y2.8519 F30.
N7765 X0.5456 Y2.857
N7770 X0.6356 Y2.8986
N7775 X0.6505 Y2.9056
N7780 X0.6655 Y2.9119
N7785 X0.6805 Y2.918
N7790 X0.6955 Y2.9231
N7795 X0.8021 Y2.9568
N7800 X0.8155 Y2.9604
N7805 X0.8305 Y2.9642
N7810 X0.8455 Y2.9676
N7815 X0.9508 Y2.9868
N7820 X0.9654 Y2.989
N7825 X0.9804 Y2.9911
N7830 X0.9954 Y2.9928
N7835 X1.0254 Y2.9945
N7840 X1.1004 Y2.9985
N7845 X1.1154 Y2.9991
N7850 X1.1304 Y2.9996
N7855 X1.1454 Y2.9995
N7860 X1.1754 Y2.9976
N7865 X1.2503 Y2.9922
N7870 X1.2803 Y2.9898
N7875 X1.2953 Y2.988
N7880 X1.3253 Y2.9827
N7885 X1.3403 Y2.9797
N7890 X1.3553 Y2.9772
N7895 X1.3628 Y2.9774
N7900 X1.3703 Y2.9786
N7905 X1.3778 Y2.9811
N7910 X1.3853 Y2.985
N7915 X1.388 Y2.9868
N7920 X1.4003 Y2.9984
N7925 X1.4037 Y3.0018
N7930 X1.4153 Y3.0133
N7935 X1.4346 Y3.0318
N7940 X1.4453 Y3.042
N7945 X1.5389 Y3.1217
N7950 X1.5548 Y3.1344
N7955 X1.5571 Y3.1369 Z-0.1743
N7960 X1.5593 Y3.1393 Z-0.1734
N7965 X1.5613 Y3.1415 Z-0.172
N7970 X1.5632 Y3.1436 Z-0.1701
N7975 X1.5645 Y3.1457 Z-0.1677
N7980 X1.5655 Y3.1474 Z-0.1649
N7985 X1.5663 Y3.1487 Z-0.1617
N7990 X1.5667 Y3.1494 Z-0.1584
N7995 X1.5669 Y3.1497 Z-0.155
N8000 G0 Z0.375
N8005 X-0.347 Y-0.4547
N8010 Z-0.1242
N8015 G1 Z-0.1742 F15.
N8020 X-0.3468 Y-0.4545 Z-0.1798
N8025 X-0.3461 Y-0.4538 Z-0.1853
N8030 X-0.345 Y-0.4527 Z-0.1907
N8035 X-0.3434 Y-0.4513 Z-0.1959
N8040 X-0.3415 Y-0.4494 Z-0.2008
N8045 X-0.3391 Y-0.4471 Z-0.2054
N8050 X-0.3364 Y-0.4446 Z-0.2096
N8055 X-0.3334 Y-0.4417 Z-0.2133
N8060 X-0.3301 Y-0.4385 Z-0.2165
N8065 X-0.3265 Y-0.4352 Z-0.2193
N8070 X-0.3228 Y-0.4316 Z-0.2214
N8075 X-0.3189 Y-0.4279 Z-0.223
N8080 X-0.3148 Y-0.4241 Z-0.2239
N8085 X-0.3108 Y-0.4202 Z-0.2242
N8090 G3 X-0.1332 Y-0.2103 I-0.88 J0.9247
N8095 G1 X-0.1303 Y-0.2057 F30.
N8100 X-0.1128 Y-0.1591
N8105 X-0.0988 Y-0.1098
N8110 X-0.0878 Y-0.0598
N8115 X-0.0792 Y-0.0092
N8120 X-0.0725 Y0.0416
N8125 X-0.0672 Y0.0926
N8130 X-0.063 Y0.1437
N8135 X-0.0598 Y0.1949
N8140 X-0.0572 Y0.2461
N8145 X-0.0551 Y0.2973
N8150 X-0.0535 Y0.3486
N8155 X-0.0523 Y0.3998
N8160 X-0.0513 Y0.4511
N8165 X-0.0505 Y0.5024
N8170 X-0.0499 Y0.5536
N8175 X-0.0494 Y0.6049
N8180 X-0.049 Y0.6562
N8185 X-0.0487 Y0.7074
N8190 X-0.0484 Y0.7587
N8195 X-0.0482 Y0.81
N8200 X-0.048 Y0.9125
N8205 X-0.0477 Y1.0663
N8210 X-0.0476 Y1.2989
N8215 X-0.0485 Y1.3132
N8220 X-0.0511 Y1.3273
N8225 X-0.0554 Y1.3409
N8230 X-0.06 Y1.3529
N8235 X-0.0692 Y1.3838
N8240 X-0.073 Y1.3979
N8245 X-0.0962 Y1.4878
N8250 X-0.0992 Y1.4993
N8255 X-0.1 Y1.5028
N8260 X-0.1052 Y1.5328
N8265 X-0.1073 Y1.5478
N8270 X-0.1188 Y1.6377
N8275 X-0.1206 Y1.6527
N8280 X-0.1227 Y1.6827
N8285 X-0.123 Y1.6977
N8290 Y1.7876
N8295 X-0.1229 Y1.8026
N8300 X-0.122 Y1.8326
N8305 X-0.1205 Y1.8476
N8310 X-0.1168 Y1.8775
N8315 X-0.1092 Y1.9375
N8320 X-0.1073 Y1.9525
N8325 X-0.103 Y1.9825
N8330 X-0.0997 Y1.9975
N8335 X-0.0992 Y1.9995
N8340 X-0.0896 Y2.0499
N8345 X-0.0806 Y2.1003
N8350 X-0.0736 Y2.1511
N8355 X-0.068 Y2.2021
N8360 X-0.0637 Y2.2532
N8365 X-0.0603 Y2.3044
N8370 X-0.0576 Y2.3556
N8375 X-0.0555 Y2.4068
N8380 X-0.0538 Y2.458
N8385 X-0.0525 Y2.5093
N8390 X-0.0514 Y2.5605
N8395 X-0.0506 Y2.6118
N8400 X-0.05 Y2.6631
N8405 X-0.0494 Y2.7144
N8410 X-0.049 Y2.7656
N8415 X-0.0487 Y2.8169
N8420 X-0.0485 Y2.8682
N8425 X-0.0483 Y2.9194
N8430 X-0.048 Y3.022
N8435 X-0.0477 Y3.1758
N8440 X-0.0476 Y3.3809
N8445 X-0.0475 Y3.6372
N8450 X-0.0457 Y3.6499
N8455 X-0.0393 Y3.6747
N8460 X-0.0166 Y3.7208
N8465 X0.0171 Y3.7594
N8470 X0.0572 Y3.7913
N8475 X0.1014 Y3.8173
N8480 X0.1481 Y3.8384
N8485 X0.1965 Y3.8554
N8490 X0.2459 Y3.8691
N8495 X0.296 Y3.88
N8500 X0.3465 Y3.8888
N8505 X0.3973 Y3.8957
N8510 X0.4483 Y3.9013
N8515 X0.4994 Y3.9057
N8520 X0.5505 Y3.9092
N8525 X0.6017 Y3.9119
N8530 X0.653 Y3.9141
N8535 X0.7042 Y3.9159
N8540 X0.7555 Y3.9173
N8545 X0.8067 Y3.9184
N8550 X0.858 Y3.9192
N8555 X0.9092 Y3.9199
N8560 X0.9605 Y3.9205
N8565 X1.0118 Y3.9209
N8570 X1.0631 Y3.9212
N8575 X1.1143 Y3.9215
N8580 X1.1656 Y3.9217
N8585 X1.2681 Y3.922
N8590 X1.3707 Y3.9222
N8595 X1.5245 Y3.9223
N8600 X1.8321 Y3.9225
N8605 X2.191
N8610 X2.2712
N8615 X2.288 Y3.9237
N8620 X2.3044 Y3.9273
N8625 X2.3201 Y3.9332
N8630 X2.3299 Y3.9378
N8635 X2.3599 Y3.9514
N8640 X2.3749 Y3.9563
N8645 X2.3899 Y3.9612
N8650 X2.4049 Y3.9655
N8655 X2.4649 Y3.9816
N8660 X2.4799 Y3.985
N8665 X2.4949 Y3.9881
N8670 X2.5099 Y3.9906
N8675 X2.5399 Y3.9935
N8680 X2.5699 Y3.9961
N8685 X2.5849 Y3.9974
N8690 X2.6148 Y3.9997
N8695 X2.6298 Y3.9993
N8700 X2.6448 Y3.9989
N8705 X2.6598 Y3.9979
N8710 X2.7198 Y3.9927
N8715 X2.7331 Y3.9912
N8720 X2.7498 Y3.989
N8725 X2.7648 Y3.9865
N8730 X2.7948 Y3.979
N8735 X2.8449 Y3.9683
N8740 X2.8953 Y3.9585
N8745 X2.946 Y3.9509
N8750 X2.9969 Y3.9449
N8755 X3.0479 Y3.9401
N8760 X3.0991 Y3.9364
N8765 X3.1503 Y3.9335
N8770 X3.2015 Y3.9312
N8775 X3.2527 Y3.9294
N8780 X3.304 Y3.9279
N8785 X3.3552 Y3.9268
N8790 X3.4065 Y3.9259
N8795 X3.4578 Y3.9252
N8800 X3.509 Y3.9246
N8805 X3.5603 Y3.9242
N8810 X3.6116 Y3.9238
N8815 X3.6628 Y3.9235
N8820 X3.7141 Y3.9233
N8825 X3.8167 Y3.923
N8830 X3.9192 Y3.9228
N8835 X4.073 Y3.9227
N8840 X4.1371 Y3.9226
N8845 X4.1498 Y3.9212
N8850 X4.1624 Y3.9184
N8855 X4.2109 Y3.9018
N8860 X4.2512 Y3.8701
N8865 X4.2845 Y3.8311
N8870 X4.3118 Y3.7877
N8875 X4.3339 Y3.7415
N8880 X4.3518 Y3.6934
N8885 X4.3662 Y3.6442
N8890 X4.3777 Y3.5943
N8895 X4.3869 Y3.5438
N8900 X4.3943 Y3.4931
N8905 X4.4001 Y3.4421
N8910 X4.4047 Y3.3911
N8915 X4.4084 Y3.3399
N8920 X4.4114 Y3.2887
N8925 X4.4137 Y3.2375
N8930 X4.4155 Y3.1863
N8935 X4.417 Y3.135
N8940 X4.4181 Y3.0838
N8945 X4.419 Y3.0325
N8950 X4.4198 Y2.9812
N8955 X4.4203 Y2.93
N8960 X4.4208 Y2.8787
N8965 X4.4211 Y2.8274
N8970 X4.4214 Y2.7762
N8975 X4.4217 Y2.7249
N8980 X4.422 Y2.6224
N8985 X4.4222 Y2.5198
N8990 X4.4223 Y2.366
N8995 X4.4224 Y2.1096
N9000 X4.4225 Y2.013
N9005 X4.4237 Y1.9962
N9010 X4.4273 Y1.9797
N9015 X4.4333 Y1.964
N9020 X4.4414 Y1.9493
N9025 X4.4491 Y1.9375
N9030 X4.4572 Y1.9225
N9035 X4.4644 Y1.9075
N9040 X4.4709 Y1.8925
N9045 X4.476 Y1.8775
N9050 X4.481 Y1.8625
N9055 X4.4901 Y1.8326
N9060 X4.4932 Y1.8176
N9065 X4.4958 Y1.8026
N9070 X4.4973 Y1.7876
N9075 X4.498 Y1.7726
N9080 X4.4984 Y1.7576
N9085 Y1.7276
N9090 X4.4972 Y1.7126
N9095 X4.4959 Y1.6977
N9100 X4.4933 Y1.6827
N9105 X4.4892 Y1.664
N9110 X4.486 Y1.6527
N9115 X4.4725 Y1.6032
N9120 X4.4618 Y1.5531
N9125 X4.4535 Y1.5025
N9130 X4.4469 Y1.4516
N9135 X4.4417 Y1.4006
N9140 X4.4377 Y1.3495
N9145 X4.4345 Y1.2983
N9150 X4.432 Y1.2471
N9155 X4.43 Y1.1959
N9160 X4.4284 Y1.1446
N9165 X4.4272 Y1.0934
N9170 X4.4262 Y1.0421
N9175 X4.4254 Y0.9909
N9180 X4.4248 Y0.9396
N9185 X4.4243 Y0.8883
N9190 X4.4239 Y0.837
N9195 X4.4236 Y0.7858
N9200 X4.4234 Y0.7345
N9205 X4.4231 Y0.632
N9210 X4.4229 Y0.5294
N9215 X4.4227 Y0.3756
N9220 X4.4226 Y0.2218
N9225 X4.4075 Y0.1728
N9230 X4.3777 Y0.1311
N9235 X4.3399 Y0.0964
N9240 X4.2972 Y0.0681
N9245 X4.2514 Y0.045
N9250 X4.2036 Y0.0263
N9255 X4.1546 Y0.0113
N9260 X4.1047 Y-0.0007
N9265 X4.0544 Y-0.0103
N9270 X4.0037 Y-0.018
N9275 X3.9528 Y-0.0241
N9280 X3.9017 Y-0.0289
N9285 X3.8506 Y-0.0328
N9290 X3.7994 Y-0.0358
N9295 X3.7482 Y-0.0383
N9300 X3.697 Y-0.0402
N9305 X3.6457 Y-0.0417
N9310 X3.5945 Y-0.0429
N9315 X3.5432 Y-0.0439
N9320 X3.4919 Y-0.0446
N9325 X3.4407 Y-0.0452
N9330 X3.3894 Y-0.0457
N9335 X3.3381 Y-0.0461
N9340 X3.2869 Y-0.0464
N9345 X3.2356 Y-0.0466
N9350 X3.1512 Y-0.0469
N9355 X3.1473 Y-0.047
N9360 X3.1434 Y-0.0472
N9365 X3.1396 Y-0.0475
N9370 X3.1247 Y-0.049
N9375 X3.1097 Y-0.0499
N9380 X3.0947
N9385 X3.0797
N9390 X3.0647 Y-0.0494
N9395 X3.0134 Y-0.0503
N9400 X2.9622 Y-0.0497
N9405 X2.9109 Y-0.0493
N9410 X2.8868 Y-0.0491
N9415 X2.8701 Y-0.0502
N9420 X2.8538 Y-0.0536
N9425 X2.8381 Y-0.0594
N9430 X2.8234 Y-0.0673
N9435 G3 X2.8539 Y-0.1585 I0.0283 J-0.0412
N9440 G1 X3.0635 Y-0.1493
N9445 G3 X3.0835 Y-0.0545 I-0.0022 J0.05
N9450 X3.0647 Y-0.0494 I-0.0222 J-0.0448 F15.
N9455 G1 X3.0497 Y-0.0489 F30.
N9460 X3.0347 Y-0.0471
N9465 X3.0197 Y-0.0447
N9470 X3.0047 Y-0.0412
N9475 X2.9897 Y-0.0368
N9480 X2.9747 Y-0.0322
N9485 X2.9447 Y-0.022
N9490 X2.9297 Y-0.0161
N9495 X2.9222 Y-0.014
N9500 X2.9147 Y-0.013
N9505 X2.9072 Y-0.0132
N9510 X2.8997 Y-0.0145
N9515 X2.8922 Y-0.0171
N9520 X2.8848 Y-0.0212
N9525 X2.8782 Y-0.0262
N9530 X2.8698 Y-0.033
N9535 X2.8548 Y-0.0445
N9540 X2.839 Y-0.0562
N9545 X2.8248 Y-0.0664
N9550 X2.8172 Y-0.0712
N9555 X2.7903 Y-0.0862
N9560 X2.7798 Y-0.0912
N9565 X2.7648 Y-0.0968
N9570 X2.7524 Y-0.1012
N9575 X2.7198 Y-0.1118
N9580 X2.7048 Y-0.1155
N9585 X2.6898 Y-0.1189
N9590 X2.6748 Y-0.1211
N9595 X2.6598 Y-0.1225
N9600 X2.6448 Y-0.1233
N9605 X2.6148 Y-0.1234
N9610 X2.5849 Y-0.1223
N9615 X2.5699 Y-0.1203
N9620 X2.5549 Y-0.1178
N9625 X2.5462 Y-0.1162
N9630 X2.5399 Y-0.1143
N9635 X2.4901 Y-0.1021
N9640 X2.4401 Y-0.0904
N9645 X2.3897 Y-0.0812
N9650 X2.3389 Y-0.0741
N9655 X2.288 Y-0.0685
N9660 X2.2369 Y-0.064
N9665 X2.1857 Y-0.0605
N9670 X2.1345 Y-0.0578
N9675 X2.0833 Y-0.0556
N9680 X2.0321 Y-0.0539
N9685 X1.9808 Y-0.0526
N9690 X1.9296 Y-0.0515
N9695 X1.8783 Y-0.0507
N9700 X1.827 Y-0.05
N9705 X1.7757 Y-0.0495
N9710 X1.7245 Y-0.0491
N9715 X1.6732 Y-0.0487
N9720 X1.6219 Y-0.0485
N9725 X1.5707 Y-0.0483
N9730 X1.4681 Y-0.048
N9735 X1.3143 Y-0.0477
N9740 X1.1092 Y-0.0476
N9745 X0.699 Y-0.0475
N9750 X0.5452
N9755 X0.417
N9760 X0.4043 Y-0.0465
N9765 X0.3917 Y-0.0441
N9770 X0.3794 Y-0.0403
N9775 X0.3677 Y-0.0352
N9780 X0.3231 Y-0.0098
N9785 X0.2879 Y0.0274
N9790 X0.2594 Y0.07
N9795 X0.2366 Y0.116
N9800 X0.2185 Y0.1639
N9805 X0.2042 Y0.2132
N9810 X0.1929 Y0.2632
N9815 X0.184 Y0.3137
N9820 X0.177 Y0.3645
N9825 X0.1716 Y0.4155
N9830 X0.1673 Y0.4666
N9835 X0.164 Y0.5177
N9840 X0.1614 Y0.5689
N9845 X0.1594 Y0.6202
N9850 X0.1579 Y0.6714
N9855 X0.1566 Y0.7227
N9860 X0.1557 Y0.7739
N9865 X0.155 Y0.8252
N9870 X0.1544 Y0.8765
N9875 X0.154 Y0.9265
N9880 X0.1524 Y0.9446
N9885 X0.1481 Y0.9622
N9890 X0.141 Y0.979
N9895 X0.1315 Y0.9944
N9900 X0.0885 Y1.0531
N9905 X0.0785 Y1.0681
N9910 X0.0658 Y1.0872
N9915 X0.0594 Y1.098
N9920 X0.0058 Y1.195
N9925 X0.0014 Y1.203
N9930 X-0.0121 Y1.233
N9935 X-0.0184 Y1.248
N9940 X-0.0549 Y1.3396
N9945 X-0.0554 Y1.3409
N9950 X-0.0556 Y1.3414
N9955 G2 X-0.1108 Y1.4493 I0.589 J0.3695
N9960 X-0.1144 Y1.4648 I0.0463 J0.0188
N9965 G1 X-0.1413 Y1.869
N9970 G2 X-0.1398 Y1.8848 I0.0499 J0.0033
N9975 X-0.107 Y1.9815 I0.6732 J-0.174
N9980 X-0.0993 Y1.9991 I0.6404 J-0.2707 F15.
N9985 G1 X-0.0992 Y1.9995
N9990 X-0.096 Y2.0125 F30.
N9995 X-0.0923 Y2.0274
N10000 X-0.0768 Y2.0874
N10005 X-0.0729 Y2.1024
N10010 X-0.0648 Y2.1324
N10015 X-0.0597 Y2.1474
N10020 X-0.0541 Y2.1624
N10025 X-0.0183 Y2.2523
N10030 X-0.0092 Y2.2741
N10035 X-0.0058 Y2.2823
N10040 X0.0019 Y2.2973
N10045 X0.0099 Y2.3123
N10050 X0.0181 Y2.3272
N10055 X0.043 Y2.3722
N10060 X0.0632 Y2.4136
N10065 X0.0812 Y2.4591
N10070 X0.0961 Y2.5081
N10075 X0.1078 Y2.558
N10080 X0.117 Y2.6085
N10085 X0.1243 Y2.6592
N10090 X0.1301 Y2.7102
N10095 X0.1347 Y2.7612
N10100 X0.1383 Y2.8124
N10105 X0.1412 Y2.8636
N10110 X0.1435 Y2.9148
N10115 X0.1454 Y2.966
N10120 X0.1468 Y3.0173
N10125 X0.148 Y3.0685
N10130 X0.1489 Y3.1198
N10135 X0.1496 Y3.1711
N10140 X0.1502 Y3.2223
N10145 X0.1507 Y3.2736
N10150 X0.1511 Y3.3249
N10155 X0.1513 Y3.3761
N10160 X0.1608 Y3.4265
N10165 X0.1825 Y3.473
N10170 X0.2133 Y3.514
N10175 X0.2503 Y3.5494
N10180 X0.2918 Y3.5796
N10185 X0.3364 Y3.6049
N10190 X0.3831 Y3.626
N10195 X0.4313 Y3.6436
N10200 X0.4805 Y3.6581
N10205 X0.5303 Y3.67
N10210 X0.5807 Y3.6798
N10215 X0.6313 Y3.6878
N10220 X0.6821 Y3.6944
N10225 X0.7331 Y3.6997
N10230 X0.7842 Y3.7041
N10235 X0.8354 Y3.7076
N10240 X0.8866 Y3.7104
N10245 X0.9378 Y3.7128
N10250 X0.989 Y3.7146
N10255 X1.0403 Y3.7162
N10260 X1.0915 Y3.7174
N10265 X1.1428 Y3.7184
N10270 X1.1941 Y3.7192
N10275 X1.2453 Y3.7198
N10280 X1.2966 Y3.7203
N10285 X1.3479 Y3.7208
N10290 X1.3991 Y3.7211
N10295 X1.4504 Y3.7214
N10300 X1.5017 Y3.7216
N10305 X1.6042 Y3.7219
N10310 X1.7068 Y3.7221
N10315 X1.8606 Y3.7223
N10320 X1.9911 Y3.7224
N10325 X2.0094 Y3.7238
N10330 X2.0272 Y3.7281
N10335 X2.0441 Y3.7351
N10340 X2.0597 Y3.7447
N10345 X2.0736 Y3.7566
N10350 X2.105 Y3.788
N10355 X2.135 Y3.8172
N10360 X2.1455 Y3.8263
N10365 X2.1658 Y3.8413
N10370 X2.18 Y3.8517
N10375 X2.21 Y3.8727
N10380 X2.2297 Y3.8862
N10385 X2.24 Y3.8933
N10390 X2.2535 Y3.9012
N10395 X2.285 Y3.9168
N10400 X2.3 Y3.9239
N10405 X2.3201 Y3.9332
N10410 X2.3205 Y3.9335
N10415 G2 X2.3363 Y3.9444 I0.276 J-0.3832
N10420 X2.4291 Y3.9919 I0.2603 J-0.394
N10425 X2.442 Y3.9949 I0.0177 J-0.0468
N10430 G1 X2.6634 Y4.0162
N10435 G2 X2.6767 Y4.0157 I0.0048 J-0.0498
N10440 X2.7768 Y3.9868 I-0.0801 J-0.4654
N10445 X2.7944 Y3.9791 I-0.1802 J-0.4365 F15.
N10450 G1 X2.7948 Y3.979
N10455 X2.8398 Y3.9669 F30.
N10460 X2.8698 Y3.9586
N10465 X2.8848 Y3.9528
N10470 X2.9016 Y3.9462
N10475 X2.9147 Y3.9403
N10480 X2.9747 Y3.9124
N10485 X2.9897 Y3.9046
N10490 X3.0047 Y3.8964
N10495 X3.0197 Y3.8868
N10500 X3.0635 Y3.8562
N10505 X3.0961 Y3.8358
N10510 X3.1289 Y3.8186
N10515 X3.1715 Y3.8006
N10520 X3.2202 Y3.7845
N10525 X3.2698 Y3.7718
N10530 X3.3201 Y3.7617
N10535 X3.3707 Y3.7538
N10540 X3.4216 Y3.7474
N10545 X3.4727 Y3.7424
N10550 X3.5238 Y3.7383
N10555 X3.5749 Y3.7351
N10560 X3.6261 Y3.7326
N10565 X3.6774 Y3.7306
N10570 X3.7286 Y3.7289
N10575 X3.7799 Y3.7276
N10580 X3.8311 Y3.7266
N10585 X3.8824 Y3.7258
N10590 X3.9325 Y3.7147
N10595 X3.9783 Y3.6917
N10600 X4.0187 Y3.6602
N10605 X4.0534 Y3.6225
N10610 X4.083 Y3.5805
N10615 X4.1077 Y3.5357
N10620 X4.1284 Y3.4887
N10625 X4.1456 Y3.4404
N10630 X4.1597 Y3.3911
N10635 X4.1714 Y3.3412
N10640 X4.1809 Y3.2908
N10645 X4.1888 Y3.2402
N10650 X4.1951 Y3.1893
N10655 X4.2003 Y3.1383
N10660 X4.2046 Y3.0872
N10665 X4.208 Y3.036
N10670 X4.2108 Y2.9848
N10675 X4.213 Y2.9336
N10680 X4.2149 Y2.8824
N10685 X4.2163 Y2.8311
N10690 X4.2175 Y2.7799
N10695 X4.2185 Y2.7286
N10700 X4.2193 Y2.6773
N10705 X4.2199 Y2.6261
N10710 X4.2204 Y2.5748
N10715 X4.2208 Y2.5235
N10720 X4.221 Y2.4897
N10725 X4.2221 Y2.4749
N10730 X4.225 Y2.4603
N10735 X4.2297 Y2.4463
N10740 X4.2343 Y2.4351
N10745 X4.2708 Y2.3422
N10750 X4.2766 Y2.3272
N10755 X4.2866 Y2.2973
N10760 X4.2911 Y2.2823
N10765 X4.3213 Y2.1773
N10770 X4.3288 Y2.1474
N10775 X4.3321 Y2.1324
N10780 X4.3434 Y2.0724
N10785 X4.345 Y2.0649
N10790 X4.3479 Y2.0574
N10795 X4.3507 Y2.0525
N10800 X4.3542 Y2.0475
N10805 X4.359 Y2.0424
N10810 X4.3692 Y2.034
N10815 X4.3842 Y2.0209
N10820 X4.3923 Y2.0125
N10825 X4.3992 Y2.0052
N10830 X4.4056 Y1.9975
N10835 X4.4292 Y1.9666
N10840 X4.4393 Y1.9525
N10845 X4.4414 Y1.9493
N10850 X4.4417 Y1.9489
N10855 G2 X4.4545 Y1.9346 I-0.1845 J-0.1789
N10860 X4.4818 Y1.895 I-0.1973 J-0.1647
N10865 X4.4875 Y1.8781 I-0.0437 J-0.0243
N10870 G1 X4.5091 Y1.7341
N10875 G2 X4.5086 Y1.7163 I-0.0494 J-0.0074
N10880 X4.4942 Y1.6705 I-0.2514 J0.0537
N10885 X4.4861 Y1.653 I-0.237 J0.0994 F15.
N10890 G1 X4.486 Y1.6527
N10895 X4.4762 Y1.6227 F30.
N10900 X4.471 Y1.6077
N10905 X4.4651 Y1.5927
N10910 X4.4592 Y1.5814
N10915 X4.4491 Y1.5627
N10920 X4.4442 Y1.5543
N10925 X4.4397 Y1.5478
N10930 X4.4288 Y1.5328
N10935 X4.4175 Y1.5178
N10940 X4.4058 Y1.5028
N10945 X4.3992 Y1.4945
N10950 X4.3947 Y1.4878
N10955 X4.3912 Y1.4803
N10960 X4.3891 Y1.4728
N10965 X4.3881 Y1.4653
N10970 X4.3883 Y1.4578
N10975 X4.3896 Y1.4503
N10980 X4.3921 Y1.4428
N10985 X4.3978 Y1.4278
N10990 X4.4081 Y1.3979
N10995 X4.417 Y1.3679
N11000 X4.42 Y1.3529
N11005 X4.4225 Y1.3379
N11010 X4.4239 Y1.3229
N11015 X4.4245 Y1.3079
N11020 X4.4249 Y1.2929
N11025 Y1.2629
N11030 X4.4237 Y1.248
N11035 X4.4223 Y1.233
N11040 X4.4196 Y1.218
N11045 X4.4142 Y1.1946
N11050 X4.4121 Y1.188
N11055 X4.4025 Y1.158
N11060 X4.3969 Y1.143
N11065 X4.3913 Y1.128
N11070 X4.3842 Y1.1149
N11075 X4.3748 Y1.098
N11080 X4.3692 Y1.0886
N11085 X4.3653 Y1.0831
N11090 X4.3545 Y1.0681
N11095 X4.3358 Y1.0398
N11100 X4.3197 Y1.0105
N11105 X4.3027 Y0.9726
N11110 X4.2855 Y0.9243
N11115 X4.2721 Y0.8748
N11120 X4.2617 Y0.8246
N11125 X4.2534 Y0.774
N11130 X4.2469 Y0.7232
N11135 X4.2418 Y0.6722
N11140 X4.2378 Y0.621
N11145 X4.2346 Y0.5699
N11150 X4.2321 Y0.5187
N11155 X4.2275 Y0.4676
N11160 X4.2098 Y0.4195
N11165 X4.1821 Y0.3764
N11170 X4.1472 Y0.3388
N11175 X4.1072 Y0.3067
N11180 X4.0637 Y0.2796
N11185 X4.0177 Y0.2569
N11190 X3.97 Y0.238
N11195 X3.9212 Y0.2224
N11200 X3.8716 Y0.2095
N11205 X3.8214 Y0.1989
N11210 X3.7709 Y0.1902
N11215 X3.7201 Y0.1831
N11220 X3.6692 Y0.1773
N11225 X3.6181 Y0.1726
N11230 X3.5906 Y0.1705
N11235 X3.5852 Y0.17
N11240 X3.5798 Y0.1691
N11245 X3.5745 Y0.1679
N11250 X3.5445 Y0.1638
N11255 X3.5295 Y0.1634
N11260 X3.4784 Y0.1601
N11265 X3.4633 Y0.1585
N11270 X3.4486 Y0.1546
N11275 X3.4348 Y0.1485
N11280 X3.422 Y0.1403
N11285 X3.4107 Y0.1303
N11290 X3.401 Y0.1186
N11295 G3 X3.4554 Y0.0428 I0.0419 J-0.0273
N11300 G1 X3.541 Y0.065
N11305 G3 X3.5486 Y0.1591 I-0.0125 J0.0484
N11310 X3.5295 Y0.1634 I-0.0201 J-0.0458 F15.
N11315 G1 X3.5145 Y0.1631 F30.
N11320 X3.4995 Y0.1632
N11325 X3.4845 Y0.1635
N11330 X3.4695 Y0.1638
N11335 X3.4545 Y0.1644
N11340 X3.447 Y0.1632
N11345 X3.4396 Y0.1608
N11350 X3.4334 Y0.1578
N11355 X3.4273 Y0.1537
N11360 X3.4246 Y0.1513
N11365 X3.4187 Y0.145
N11370 X3.4145 Y0.1387
N11375 X3.4046 Y0.1237
N11380 X3.394 Y0.1087
N11385 X3.3796 Y0.0885
N11390 X3.3715 Y0.0787
N11395 X3.3585 Y0.0637
N11400 X3.3496 Y0.0543
N11405 X3.3429 Y0.0487
N11410 X3.3246 Y0.0337
N11415 X3.3196 Y0.0298
N11420 X3.3045 Y0.0188
N11425 X3.2896 Y0.008
N11430 X3.2831 Y0.0038
N11435 X3.2568 Y-0.0112
N11440 X3.2446 Y-0.0171
N11445 X3.2206 Y-0.0262
N11450 X3.2146 Y-0.0282
N11455 X3.1914 Y-0.0358
N11460 X3.1905 Y-0.0362
N11465 G2 X3.1757 Y-0.0475 I-0.3899 J0.4998
N11470 X3.1455 Y-0.0683 I-0.3751 J0.5111
N11475 X3.1243 Y-0.076 I-0.0272 J0.042
N11480 G1 X2.614 Y-0.1373
N11485 G2 X2.5915 Y-0.1349 I-0.006 J0.0496
N11490 X2.5579 Y-0.1221 I0.2091 J0.5984
N11495 X2.5402 Y-0.1144 I0.2427 J0.5856 F15.
N11500 G1 X2.5399 Y-0.1143
N11505 X2.5249 Y-0.1098 F30.
N11510 X2.5099 Y-0.1052
N11515 X2.4799 Y-0.095
N11520 X2.4649 Y-0.0883
N11525 X2.4499 Y-0.0811
N11530 X2.4349 Y-0.0722
N11535 X2.4199 Y-0.0624
N11540 X2.411 Y-0.0562
N11545 X2.3749 Y-0.0288
N11550 X2.3719 Y-0.0262
N11555 X2.3599 Y-0.014
N11560 X2.3471 Y-0.002
N11565 X2.3279 Y0.0133
N11570 X2.3193 Y0.0191
N11575 X2.3057 Y0.027
N11580 X2.2912 Y0.033
N11585 X2.276 Y0.0369
N11590 G3 X2.2413 Y-0.0545 I-0.0077 J-0.0494
N11595 G1 X2.2957 Y-0.0895
N11600 G3 X2.3699 Y-0.0308 I0.027 J0.0421
N11605 X2.3599 Y-0.014 I-0.0471 J-0.0167 F15.
N11610 G1 X2.3428 Y0.0038 F30.
N11615 X2.3299 Y0.0186
N11620 X2.3224 Y0.0245
N11625 X2.315 Y0.0284
N11630 X2.3075 Y0.0309
N11635 X2.3 Y0.0324
N11640 X2.24 Y0.0438
N11645 X2.225 Y0.047
N11650 X2.21 Y0.0504
N11655 X2.195 Y0.0541
N11660 X2.09 Y0.0853
N11665 X2.0402 Y0.0975
N11670 X1.9902 Y0.1088
N11675 X1.9397 Y0.1177
N11680 X1.889 Y0.1248
N11685 X1.838 Y0.1304
N11690 X1.7869 Y0.1349
N11695 X1.7358 Y0.1385
N11700 X1.6846 Y0.1413
N11705 X1.6334 Y0.1436
N11710 X1.5821 Y0.1454
N11715 X1.5309 Y0.1468
N11720 X1.4796 Y0.148
N11725 X1.4283 Y0.1489
N11730 X1.3771 Y0.1496
N11735 X1.3258 Y0.1502
N11740 X1.2745 Y0.1507
N11745 X1.2233 Y0.151
N11750 X1.172 Y0.1513
N11755 X1.1207 Y0.1516
N11760 X1.0182 Y0.1519
N11765 X0.9156 Y0.1521
N11770 X0.7618 Y0.1523
N11775 X0.7105
N11780 X0.6593 Y0.1545
N11785 X0.6109 Y0.1714
N11790 X0.5678 Y0.1992
N11795 X0.5306 Y0.2344
N11800 X0.499 Y0.2748
N11805 X0.4724 Y0.3187
N11810 X0.4504 Y0.365
N11815 X0.4321 Y0.4129
N11820 X0.4171 Y0.4619
N11825 X0.4048 Y0.5117
N11830 X0.3948 Y0.562
N11835 X0.3867 Y0.6126
N11840 X0.38 Y0.6634
N11845 X0.3754 Y0.7072
N11850 X0.3721 Y0.7251
N11855 X0.3661 Y0.7422
N11860 X0.3574 Y0.7582
N11865 X0.3464 Y0.7727
N11870 X0.3333 Y0.7853
N11875 X0.3174 Y0.7982
N11880 X0.281 Y0.8282
N11885 X0.2757 Y0.8332
N11890 X0.2653 Y0.8432
N11895 X0.2607 Y0.8477
N11900 X0.1857 Y0.9268
N11905 X0.1707 Y0.9428
N11910 X0.1664 Y0.9481
N11915 X0.1434 Y0.9781
N11920 X0.1315 Y0.9944
N11925 X0.1311 Y0.9948
N11930 G2 X0.1172 Y1.0079 I0.6803 J0.735
N11935 X-0.1158 Y1.3512 I0.6942 J0.7219
N11940 X-0.1194 Y1.3669 I0.0463 J0.0189
N11945 G1 X-0.1582 Y1.9708
N11950 G2 X-0.1566 Y1.9868 I0.0499 J0.0032
N11955 X0.0306 Y2.357 I0.968 J-0.257
N11960 X0.0427 Y2.3718 I0.7808 J-0.6272 F15.
N11965 G1 X0.043 Y2.3722
N11970 X0.0513 Y2.3872 F30.
N11975 X0.0598 Y2.4022
N11980 X0.078 Y2.4322
N11985 X0.0808 Y2.4363
N11990 X0.1107 Y2.4773
N11995 X0.1326 Y2.5071
N12000 X0.1557 Y2.5384
N12005 X0.1664 Y2.5521
N12010 X0.1707 Y2.557
N12015 X0.1802 Y2.5671
N12020 X0.2023 Y2.5933
N12025 X0.2192 Y2.6169
N12030 X0.2369 Y2.6464
N12035 X0.2555 Y2.684
N12040 X0.2746 Y2.7316
N12045 X0.2898 Y2.7806
N12050 X0.302 Y2.8304
N12055 X0.3118 Y2.8807
N12060 X0.3197 Y2.9314
N12065 X0.326 Y2.9822
N12070 X0.3311 Y3.0333
N12075 X0.3353 Y3.0844
N12080 X0.3386 Y3.1355
N12085 X0.3469 Y3.1861
N12090 X0.3655 Y3.2339
N12095 X0.3928 Y3.2773
N12100 X0.4268 Y3.3157
N12105 X0.4658 Y3.349
N12110 X0.5083 Y3.3776
N12115 X0.5535 Y3.402
N12120 X0.6004 Y3.4225
N12125 X0.6487 Y3.4398
N12130 X0.6979 Y3.4542
N12135 X0.7478 Y3.4662
N12140 X0.7981 Y3.4762
N12145 X0.8487 Y3.4844
N12150 X0.8995 Y3.4912
N12155 X0.9504 Y3.4969
N12160 X1.0015 Y3.5015
N12165 X1.0526 Y3.5053
N12170 X1.1038 Y3.5084
N12175 X1.155 Y3.511
N12180 X1.2062 Y3.5131
N12185 X1.2575 Y3.5148
N12190 X1.3087 Y3.5163
N12195 X1.36 Y3.5174
N12200 X1.4113 Y3.5184
N12205 X1.4625 Y3.5191
N12210 X1.5138 Y3.5197
N12215 X1.5651 Y3.5203
N12220 X1.6163 Y3.5207
N12225 X1.6676 Y3.521
N12230 X1.7189 Y3.5213
N12235 X1.7701 Y3.5215
N12240 X1.8214 Y3.5219
N12245 X1.8568 Y3.5232
N12250 X1.875 Y3.5253
N12255 X1.8926 Y3.5302
N12260 X1.9092 Y3.5378
N12265 X1.9245 Y3.5479
N12270 X1.938 Y3.5603
N12275 X1.9493 Y3.5746
N12280 X1.9583 Y3.5905
N12285 X1.9634 Y3.6014
N12290 X1.9701 Y3.6137
N12295 X1.98 Y3.6314
N12300 X1.9851 Y3.6402
N12305 X2.0001 Y3.6618
N12310 X2.0313 Y3.7063
N12315 X2.0429 Y3.7213
N12320 X2.06 Y3.742
N12325 X2.0683 Y3.7513
N12330 X2.0736 Y3.7566
N12335 X2.074 Y3.7572
N12340 G2 X2.0834 Y3.7735 I0.529 J-0.2932
N12345 X2.2915 Y3.9824 I0.5196 J-0.3096
N12350 X2.3123 Y3.9893 I0.0258 J-0.0429
N12355 G1 X2.7833 Y4.0367
N12360 G2 X2.805 Y4.0341 I0.005 J-0.0497
N12365 X3.0504 Y3.8709 I-0.2019 J-0.5701
N12370 X3.063 Y3.8567 I-0.4474 J-0.407 F15.
N12375 G1 X3.0635 Y3.8562
N12380 X3.0849 Y3.8413 F30.
N12385 X3.0947 Y3.8339
N12390 X3.1097 Y3.8222
N12395 X3.1216 Y3.8113
N12400 X3.1247 Y3.8083
N12405 X3.1846 Y3.7483
N12410 X3.1958 Y3.7363
N12415 X3.1996 Y3.7316
N12420 X3.2076 Y3.7213
N12425 X3.215 Y3.7126
N12430 X3.2307 Y3.6969
N12435 X3.2503 Y3.6802
N12440 X3.2751 Y3.6623
N12445 X3.3061 Y3.6436
N12450 X3.345 Y3.6241
N12455 X3.3926 Y3.6049
N12460 X3.4414 Y3.5894
N12465 X3.4911 Y3.5768
N12470 X3.5414 Y3.5666
N12475 X3.592 Y3.5583
N12480 X3.6428 Y3.5516
N12485 X3.6928 Y3.5401
N12490 X3.7397 Y3.5193
N12495 X3.7821 Y3.4905
N12500 X3.8196 Y3.4556
N12505 X3.8522 Y3.416
N12510 X3.8801 Y3.373
N12515 X3.904 Y3.3276
N12520 X3.9241 Y3.2804
N12525 X3.941 Y3.232
N12530 X3.9551 Y3.1828
N12535 X3.9669 Y3.1329
N12540 X3.9767 Y3.0825
N12545 X3.9848 Y3.0319
N12550 X3.9916 Y2.9811
N12555 X3.9971 Y2.9301
N12560 X4.0017 Y2.879
N12565 X4.0033 Y2.8573
N12570 X4.0058 Y2.8405
N12575 X4.0107 Y2.8242
N12580 X4.0179 Y2.8088
N12585 X4.0273 Y2.7946
N12590 X4.0409 Y2.777
N12595 X4.0522 Y2.762
N12600 X4.0629 Y2.747
N12605 X4.0693 Y2.7372
N12610 X4.1294 Y2.642
N12615 X4.1387 Y2.627
N12620 X4.1556 Y2.5971
N12625 X4.1593 Y2.5901
N12630 X4.2089 Y2.4921
N12635 X4.2164 Y2.4771
N12640 X4.2297 Y2.4463
N12645 G3 X4.2308 Y2.445 I0.0028 J0.0013
N12650 G2 X4.2456 Y2.4349 I-0.494 J-0.7384
N12655 X4.4535 Y2.2315 I-0.5088 J-0.7283
N12660 X4.463 Y2.2065 I-0.0403 J-0.0295
N12665 G1 X4.5406 Y1.3446
N12670 G2 X4.5358 Y1.3182 I-0.0498 J-0.0045
N12675 X4.3684 Y1.0819 I-0.799 J0.3884
N12680 X4.3548 Y1.0684 I-0.6316 J0.6247 F15.
N12685 G1 X4.3545 Y1.0681
N12690 X4.3433 Y1.0531 F30.
N12695 X4.3242 Y1.0294
N12700 X4.3185 Y1.0231
N12705 X4.3092 Y1.0149
N12710 X4.2942 Y1.0016
N12715 X4.2833 Y0.9931
N12720 X4.2793 Y0.9902
N12725 X4.2623 Y0.9781
N12730 X4.2493 Y0.9691
N12735 X4.2405 Y0.9631
N12740 X4.2343 Y0.9592
N12745 X4.228 Y0.9546
N12750 X4.2245 Y0.9514
N12755 X4.2217 Y0.9481
N12760 X4.2193 Y0.9449
N12765 X4.2158 Y0.939
N12770 X4.2133 Y0.9332
N12775 X4.2113 Y0.9257
N12780 X4.2105 Y0.9182
N12785 X4.2112 Y0.9032
N12790 X4.2119 Y0.8732
N12795 X4.2118 Y0.8582
N12800 X4.2117 Y0.8432
N12805 X4.2108 Y0.8282
N12810 X4.2088 Y0.8132
N12815 X4.2064 Y0.7982
N12820 X4.1985 Y0.7683
N12825 X4.1937 Y0.7533
N12830 X4.1889 Y0.7383
N12835 X4.1832 Y0.7233
N12840 X4.1743 Y0.7022
N12845 X4.1699 Y0.6933
N12850 X4.1612 Y0.6783
N12855 X4.1593 Y0.6754
N12860 X4.1511 Y0.6633
N12865 X4.1293 Y0.6333
N12870 X4.1173 Y0.6184
N12875 X4.1143 Y0.6147
N12880 X4.1035 Y0.6034
N12885 X4.0993 Y0.5992
N12890 X4.0866 Y0.5884
N12895 X4.0673 Y0.5734
N12900 X4.0543 Y0.5636
N12905 X4.0469 Y0.5584
N12910 X4.0249 Y0.5434
N12915 X4.0243 Y0.5431
N12920 X3.9801 Y0.5171
N12925 X3.9356 Y0.4917
N12930 X3.9207 Y0.4846
N12935 X3.907 Y0.477
N12940 X3.8945 Y0.4675
N12945 X3.8833 Y0.4564
N12950 X3.8737 Y0.4439
N12955 X3.8659 Y0.4303
N12960 X3.86 Y0.4157
N12965 G3 X3.9366 Y0.3608 I0.048 J-0.014
N12970 G1 X4.0745 Y0.4569
N12975 G3 X4.0433 Y0.5479 I-0.0286 J0.041
N12980 X4.0243 Y0.5431 I0.0026 J-0.0499 F15.
N12985 G1 X3.9944 Y0.5275 F30.
N12990 X3.9794 Y0.522
N12995 X3.9644 Y0.5167
N13000 X3.9547 Y0.5134
N13005 X3.9344 Y0.5072
N13010 X3.9194 Y0.5027
N13015 X3.9044 Y0.4984
N13020 X3.8969 Y0.4946
N13025 X3.8931 Y0.4921
N13030 X3.8894 Y0.4889
N13035 X3.8842 Y0.4835
N13040 X3.8814 Y0.4797
N13045 X3.8791 Y0.476
N13050 X3.8757 Y0.4685
N13055 X3.8744 Y0.4641
N13060 X3.8716 Y0.4535
N13065 X3.8625 Y0.4235
N13070 X3.8594 Y0.4139
N13075 X3.8523 Y0.3935
N13080 X3.8462 Y0.3785
N13085 X3.8386 Y0.3635
N13090 X3.8305 Y0.3485
N13095 X3.8203 Y0.3335
N13100 X3.8144 Y0.3248
N13105 X3.8099 Y0.3186
N13110 X3.7984 Y0.3036
N13115 X3.7844 Y0.2854
N13120 X3.7737 Y0.2736
N13125 X3.7694 Y0.2693
N13130 X3.7577 Y0.2586
N13135 X3.7544 Y0.2558
N13140 X3.7394 Y0.2441
N13145 X3.7182 Y0.2286
N13150 X3.7095 Y0.2223
N13155 X3.6966 Y0.2136
N13160 X3.6795 Y0.2038
N13165 X3.6678 Y0.1986
N13170 X3.6495 Y0.1907
N13175 X3.6345 Y0.1854
N13180 X3.6195 Y0.1805
N13185 X3.6045 Y0.176
N13190 X3.5758 Y0.1682
N13195 X3.5745 Y0.1679
N13200 G3 X3.5731 Y0.167 I0.0009 J-0.003
N13205 G2 X3.5611 Y0.1537 I-0.7818 J0.6935
N13210 X3.2068 Y-0.0984 I-0.7698 J0.7068
N13215 X3.1896 Y-0.1025 I-0.0199 J0.0459
N13220 G1 X2.502 Y-0.1407
N13225 G2 X2.4846 Y-0.1386 I-0.0028 J0.0499
N13230 X2.1049 Y0.0725 I0.3067 J0.999
N13235 X2.0911 Y0.0847 I0.6864 J0.788 F15.
N13240 G3 X2.09 Y0.0853 I-0.0021 J-0.0023
N13245 G1 X2.06 Y0.0943 F30.
N13250 X2.0451 Y0.099
N13255 X2.0301 Y0.1047
N13260 X2.0151 Y0.1108
N13265 X1.9101 Y0.1537
N13270 X1.8951 Y0.16
N13275 X1.8651 Y0.1744
N13280 X1.8501 Y0.1821
N13285 X1.7602 Y0.23
N13290 X1.7452 Y0.238
N13295 X1.705 Y0.2584
N13300 X1.6608 Y0.2765
N13305 X1.6119 Y0.2921
N13310 X1.5622 Y0.3044
N13315 X1.5118 Y0.3142
N13320 X1.4612 Y0.3219
N13325 X1.4103 Y0.3281
N13330 X1.3592 Y0.333
N13335 X1.3081 Y0.3369
N13340 X1.2569 Y0.3401
N13345 X1.2057 Y0.3425
N13350 X1.1545 Y0.3445
N13355 X1.1032 Y0.3461
N13360 X1.052 Y0.3474
N13365 X1.0007 Y0.3484
N13370 X0.9494 Y0.3492
N13375 X0.8983 Y0.3523
N13380 X0.8491 Y0.3669
N13385 X0.8042 Y0.3915
N13390 X0.7643 Y0.4238
N13395 X0.7297 Y0.4616
N13400 X0.7 Y0.5034
N13405 X0.6748 Y0.548
N13410 X0.6711 Y0.5556
N13415 X0.6632 Y0.5696
N13420 X0.6534 Y0.5823
N13425 X0.6419 Y0.5936
N13430 X0.6291 Y0.6031
N13435 X0.615 Y0.6109
N13440 X0.5456 Y0.643
N13445 X0.5354 Y0.6483
N13450 X0.5092 Y0.6633
N13455 X0.5006 Y0.6685
N13460 X0.4256 Y0.7154
N13465 X0.4135 Y0.7233
N13470 X0.3956 Y0.7351
N13475 X0.3912 Y0.7383
N13480 X0.3724 Y0.7533
N13485 X0.3333 Y0.7853
N13490 G3 X0.3158 Y0.7938 I-0.0303 J-0.0398
N13495 G1 X0.3103 Y0.7953 Z-0.2239
N13500 X0.305 Y0.7967 Z-0.223
N13505 X0.2998 Y0.7981 Z-0.2214
N13510 X0.2948 Y0.7994 Z-0.2193
N13515 X0.29 Y0.8006 Z-0.2165
N13520 X0.2856 Y0.8018 Z-0.2133
N13525 X0.2816 Y0.8029 Z-0.2096
N13530 X0.278 Y0.8038 Z-0.2054
N13535 X0.2748 Y0.8046 Z-0.2008
N13540 X0.2722 Y0.8053 Z-0.1959
N13545 X0.2701 Y0.8059 Z-0.1907
N13550 X0.2686 Y0.8063 Z-0.1853
N13555 X0.2677 Y0.8065 Z-0.1798
N13560 X0.2674 Y0.8066 Z-0.1742
N13565 G0 Z0.375
N13570 X1.7834 Y0.1803
N13575 Z-0.1242
N13580 G1 Z-0.1742 F15.
N13585 X1.7832 Y0.1806 Z-0.1798
N13590 X1.7827 Y0.1814 Z-0.1853
N13595 X1.782 Y0.1827 Z-0.1907
N13600 X1.7809 Y0.1846 Z-0.1959
N13605 X1.7796 Y0.187 Z-0.2008
N13610 X1.778 Y0.1898 Z-0.2054
N13615 X1.7762 Y0.193 Z-0.2096
N13620 X1.7741 Y0.1967 Z-0.2133
N13625 X1.7719 Y0.2007 Z-0.2165
N13630 X1.7694 Y0.2049 Z-0.2193
N13635 X1.7669 Y0.2094 Z-0.2214
N13640 X1.7642 Y0.2141 Z-0.223
N13645 X1.7615 Y0.2189 Z-0.2239
N13650 X1.7588 Y0.2238 Z-0.2242
N13655 G3 X1.7452 Y0.238 I-0.0344 J-0.0195
N13660 G1 X1.7302 Y0.2466 F30.
N13665 X1.7152 Y0.2555
N13670 X1.5983 Y0.3335
N13675 X1.5952 Y0.3356
N13680 X1.5587 Y0.3635
N13685 X1.5223 Y0.3935
N13690 X1.4933 Y0.415
N13695 X1.4651 Y0.4327
N13700 X1.4294 Y0.4511
N13705 X1.3835 Y0.4704
N13710 X1.3348 Y0.4864
N13715 X1.2851 Y0.4992
N13720 X1.2608 Y0.5042
N13725 X1.2502 Y0.5059
N13730 X1.2396 Y0.5065
N13735 X1.2289 Y0.5063
N13740 G3 X1.2159 Y0.41 I0.0054 J-0.0497
N13745 G1 X1.4708 Y0.3095
N13750 G3 X1.5341 Y0.378 I0.0183 J0.0465
N13755 X1.5223 Y0.3935 I-0.0449 J-0.022 F15.
N13760 G1 X1.4676 Y0.4385 F30.
N13765 X1.4603 Y0.4446
N13770 X1.4453 Y0.4575
N13775 X1.4303 Y0.4723
N13780 X1.4153 Y0.4873
N13785 X1.4003 Y0.5024
N13790 X1.3884 Y0.5134
N13795 X1.3853 Y0.5155
N13800 X1.3778 Y0.5193
N13805 X1.3703 Y0.5216
N13810 X1.3628 Y0.5228
N13815 X1.3553 Y0.5229
N13820 X1.3403 Y0.5203
N13825 X1.3253 Y0.5173
N13830 X1.2953 Y0.512
N13835 X1.2803 Y0.5102
N13840 X1.2503 Y0.5078
N13845 X1.1754 Y0.5024
N13850 X1.1454 Y0.5005
N13855 X1.1304 Y0.5004
N13860 X1.1154 Y0.5009
N13865 X1.1004 Y0.5015
N13870 X1.0254 Y0.5056
N13875 X0.9954 Y0.5072
N13880 X0.9804 Y0.5089
N13885 X0.9654 Y0.511
N13890 X0.9504 Y0.5133
N13895 X0.8455 Y0.5324
N13900 X0.8305 Y0.5358
N13905 X0.8155 Y0.5396
N13910 X0.8014 Y0.5434
N13915 X0.6955 Y0.5769
N13920 X0.6805 Y0.5824
N13925 X0.6653 Y0.5884
N13930 X0.6505 Y0.5944
N13935 X0.615 Y0.6109
N13940 G3 X0.5959 Y0.6148 I-0.0194 J-0.0461
N13945 G1 X0.5903 Z-0.2239
N13950 X0.5848 Z-0.223
N13955 X0.5794 Y0.6149 Z-0.2214
N13960 X0.5742 Z-0.2193
N13965 X0.5693 Z-0.2165
N13970 X0.5647 Z-0.2133
N13975 X0.5605 Y0.615 Z-0.2096
N13980 X0.5568 Z-0.2054
N13985 X0.5535 Z-0.2008
N13990 X0.5508 Z-0.1959
N13995 X0.5487 Z-0.1907
N14000 X0.5471 Z-0.1853
N14005 X0.5462 Z-0.1798
N14010 X0.5459 Z-0.1742
N14015 G0 Z0.375
N14020 X0.1152 Y2.5431
N14025 Z-0.1242
N14030 G1 Z-0.1742 F15.
N14035 X0.1155 Y2.5432 Z-0.1798
N14040 X0.1164 Y2.5435 Z-0.1853
N14045 X0.1179 Y2.5439 Z-0.1907
N14050 X0.12 Y2.5445 Z-0.1959
N14055 X0.1226 Y2.5453 Z-0.2008
N14060 X0.1257 Y2.5462 Z-0.2054
N14065 X0.1293 Y2.5472 Z-0.2096
N14070 X0.1333 Y2.5484 Z-0.2133
N14075 X0.1377 Y2.5497 Z-0.2165
N14080 X0.1424 Y2.551 Z-0.2193
N14085 X0.1474 Y2.5525 Z-0.2214
N14090 X0.1526 Y2.554 Z-0.223
N14095 X0.1579 Y2.5555 Z-0.2239
N14100 X0.1633 Y2.5571 Z-0.2242
N14105 G3 X0.1802 Y2.5671 I-0.011 J0.038
N14110 G1 X0.1942 Y2.5821 F30.
N14115 X0.2457 Y2.6365
N14120 X0.2653 Y2.657
N14125 X0.2757 Y2.6669
N14130 X0.2813 Y2.672
N14135 X0.3057 Y2.6921
N14140 X0.336 Y2.717
N14145 X0.3611 Y2.7396
N14150 X0.3779 Y2.7576
N14155 X0.396 Y2.7803
N14160 X0.4149 Y2.8081
N14165 X0.4347 Y2.8432
N14170 X0.4553 Y2.8878
N14175 X0.473 Y2.9359
N14180 X0.4922 Y2.9834
N14185 X0.5172 Y3.0282
N14190 X0.548 Y3.0692
N14195 X0.5837 Y3.106
N14200 X0.6233 Y3.1385
N14205 X0.666 Y3.1668
N14210 X0.7111 Y3.1913
N14215 X0.7579 Y3.2123
N14220 X0.806 Y3.2301
N14225 X0.8549 Y3.2453
N14230 X0.9046 Y3.2581
N14235 X0.9547 Y3.2689
N14240 X1.0052 Y3.2779
N14245 X1.0559 Y3.2855
N14250 X1.1068 Y3.2918
N14255 X1.1578 Y3.2971
N14260 X1.2089 Y3.3015
N14265 X1.26 Y3.3051
N14270 X1.3112 Y3.3081
N14275 X1.3624 Y3.3106
N14280 X1.4136 Y3.3127
N14285 X1.4649 Y3.3144
N14290 X1.5161 Y3.3159
N14295 X1.5674 Y3.317
N14300 X1.6186 Y3.318
N14305 X1.6699 Y3.3192
N14310 X1.7211 Y3.3212
N14315 X1.7722 Y3.3256
N14320 X1.8014 Y3.3302
N14325 X1.8178 Y3.334
N14330 X1.8334 Y3.3402
N14335 X1.848 Y3.3486
N14340 X1.8612 Y3.3591
N14345 X1.8727 Y3.3713
N14350 X1.8823 Y3.3851
N14355 X1.8899 Y3.4002
N14360 X1.8951 Y3.4162
N14365 X1.8965 Y3.4215
N14370 X1.9045 Y3.4515
N14375 X1.9127 Y3.4815
N14380 X1.9169 Y3.4965
N14385 X1.9223 Y3.5115
N14390 X1.9251 Y3.5186
N14395 X1.9285 Y3.5265
N14400 X1.9401 Y3.5514
N14405 X1.9583 Y3.5905
N14410 G3 X1.9623 Y3.6096 I-0.046 J0.0195
N14415 G1 X1.9624 Y3.6152 Z-0.2239
N14420 Y3.6207 Z-0.223
N14425 X1.9625 Y3.6261 Z-0.2214
N14430 Y3.6313 Z-0.2193
N14435 X1.9626 Y3.6362 Z-0.2165
N14440 Y3.6408 Z-0.2133
N14445 Y3.645 Z-0.2096
N14450 X1.9627 Y3.6487 Z-0.2054
N14455 Y3.6519 Z-0.2008
N14460 Y3.6546 Z-0.1959
N14465 Y3.6568 Z-0.1907
N14470 Y3.6583 Z-0.1853
N14475 X1.9628 Y3.6593 Z-0.1798
N14480 Y3.6596 Z-0.1742
N14485 G0 Z0.375
N14490 X3.1946 Y3.7893
N14495 Z-0.1242
N14500 G1 Z-0.1742 F15.
N14505 Y3.789 Z-0.1798
N14510 X3.1948 Y3.7881 Z-0.1853
N14515 X3.1949 Y3.7865 Z-0.1907
N14520 X3.1952 Y3.7844 Z-0.1959
N14525 X3.1955 Y3.7817 Z-0.2008
N14530 X3.1959 Y3.7785 Z-0.2054
N14535 X3.1963 Y3.7748 Z-0.2096
N14540 X3.1968 Y3.7706 Z-0.2133
N14545 X3.1974 Y3.7661 Z-0.2165
N14550 X3.198 Y3.7612 Z-0.2193
N14555 X3.1986 Y3.756 Z-0.2214
N14560 X3.1992 Y3.7507 Z-0.223
N14565 X3.1999 Y3.7452 Z-0.2239
N14570 X3.2005 Y3.7396 Z-0.2242
N14575 G3 X3.2076 Y3.7213 I0.0393 J0.0047
N14580 G1 X3.2146 Y3.7122 F30.
N14585 X3.2446 Y3.6693
N14590 X3.2606 Y3.6464
N14595 X3.2706 Y3.6314
N14600 X3.2787 Y3.6164
N14605 X3.2866 Y3.6014
N14610 X3.2896 Y3.5949
N14615 X3.2982 Y3.5786
N14620 X3.3078 Y3.5636
N14625 X3.3202 Y3.5471
N14630 X3.3357 Y3.5297
N14635 X3.3552 Y3.5111
N14640 X3.3795 Y3.4913
N14645 X3.409 Y3.471
N14650 X3.4535 Y3.4454
N14655 X3.4979 Y3.4198
N14660 X3.5397 Y3.3902
N14665 X3.5782 Y3.3563
N14670 X3.6128 Y3.3185
N14675 X3.6436 Y3.2774
N14680 X3.6705 Y3.2338
N14685 X3.6939 Y3.1882
N14690 X3.7141 Y3.1411
N14695 X3.7145 Y3.1398
N14700 X3.7203 Y3.1263
N14705 X3.7277 Y3.1137
N14710 X3.7367 Y3.1021
N14715 X3.747 Y3.0917
N14720 X3.8147 Y3.0318
N14725 X3.8315 Y3.0168
N14730 X3.8444 Y3.005
N14735 X3.8594 Y2.9897
N14740 X3.9462 Y2.8969
N14745 X3.9494 Y2.8933
N14750 X3.9714 Y2.8669
N14755 X3.9794 Y2.8567
N14760 X4.0273 Y2.7946
N14765 G3 X4.1025 Y2.8605 I0.0385 J0.0319
N14770 G1 X3.3723 Y3.6484
N14775 G3 X3.2856 Y3.614 I-0.0367 J-0.034
N14780 X3.2896 Y3.5949 I0.05 J0.0004 F15.
N14785 G1 X3.3196 Y3.5306 F30.
N14790 X3.3213 Y3.5265
N14795 X3.3329 Y3.4965
N14800 X3.3346 Y3.4915
N14805 X3.3415 Y3.4665
N14810 X3.3455 Y3.4515
N14815 X3.3544 Y3.424
N14820 X3.3739 Y3.3767
N14825 X3.3867 Y3.3508
N14830 X3.3943 Y3.3377
N14835 X3.4036 Y3.3258
N14840 X3.4143 Y3.3151
N14845 X3.4264 Y3.306
N14850 X3.4396 Y3.2986
N14855 G3 X3.5054 Y3.3679 I0.0224 J0.0447
N14860 G1 X3.4377 Y3.4874
N14865 G3 X3.3449 Y3.471 I-0.0435 J-0.0247
N14870 X3.3455 Y3.4515 I0.0493 J-0.0083 F15.
N14875 G1 X3.3535 Y3.4215 F30.
N14880 X3.361 Y3.3915
N14885 X3.3641 Y3.3766
N14890 X3.3646 Y3.3736
N14895 X3.3662 Y3.3616
N14900 X3.3674 Y3.3541
N14905 X3.3698 Y3.3466
N14910 X3.3736 Y3.3391
N14915 X3.3792 Y3.3316
N14920 X3.3796 Y3.3312
N14925 X3.3833 Y3.3275
N14930 X3.3871 Y3.3245
N14935 X3.3908 Y3.3221
N14940 X3.3946 Y3.32
N14945 X3.4096 Y3.3129
N14950 X3.4246 Y3.3058
N14955 X3.4396 Y3.2986
N14960 X3.4545 Y3.2904
N14965 X3.4845 Y3.273
N14970 X3.5595 Y3.2284
N14975 X3.5895 Y3.2098
N14980 X3.6045 Y3.1996
N14985 X3.7112 Y3.1217
N14990 X3.7245 Y3.1107
N14995 X3.7459 Y3.0926
N15000 X3.747 Y3.0917
N15005 G3 X3.7642 Y3.0825 I0.0318 J0.0386
N15010 G1 X3.7696 Y3.0808 Z-0.2239
N15015 X3.7748 Y3.0792 Z-0.223
N15020 X3.78 Y3.0776 Z-0.2214
N15025 X3.785 Y3.0761 Z-0.2193
N15030 X3.7896 Y3.0747 Z-0.2165
N15035 X3.794 Y3.0733 Z-0.2133
N15040 X3.798 Y3.0721 Z-0.2096
N15045 X3.8016 Y3.071 Z-0.2054
N15050 X3.8047 Y3.0701 Z-0.2008
N15055 X3.8073 Y3.0693 Z-0.1959
N15060 X3.8093 Y3.0686 Z-0.1907
N15065 X3.8108 Y3.0682 Z-0.1853
N15070 X3.8117 Y3.0679 Z-0.1798
N15075 X3.812 Y3.0678 Z-0.1742
N15080 G0 Z0.375
N15085 X0.2685 Y2.7019
N15090 Z-0.1242
N15095 G1 Z-0.1742 F15.
N15100 X0.2688 Z-0.1798
N15105 X0.2698 Y2.7021 Z-0.1853
N15110 X0.2713 Y2.7023 Z-0.1907
N15115 X0.2734 Y2.7026 Z-0.1959
N15120 X0.2761 Y2.703 Z-0.2008
N15125 X0.2793 Y2.7035 Z-0.2054
N15130 X0.283 Y2.7041 Z-0.2096
N15135 X0.2871 Y2.7047 Z-0.2133
N15140 X0.2917 Y2.7054 Z-0.2165
N15145 X0.2965 Y2.7061 Z-0.2193
N15150 X0.3016 Y2.7069 Z-0.2214
N15155 X0.307 Y2.7077 Z-0.223
N15160 X0.3124 Y2.7085 Z-0.2239
N15165 X0.318 Y2.7093 Z-0.2242
N15170 G3 X0.336 Y2.717 I-0.0059 J0.0391
N15175 G1 X0.3544 Y2.732 F30.
N15180 X0.3915 Y2.762
N15185 X0.3956 Y2.7651
N15190 X0.4106 Y2.775
N15195 X0.4256 Y2.7845
N15200 X0.5006 Y2.8315
N15205 X0.5093 Y2.8369
N15210 X0.5156 Y2.8408
N15215 X0.5306 Y2.8494
N15220 X0.5746 Y2.8757
N15225 X0.6184 Y2.9023
N15230 X0.6628 Y2.928
N15235 X0.7081 Y2.952
N15240 X0.7544 Y2.974
N15245 X0.8017 Y2.9939
N15250 X0.8498 Y3.0116
N15255 X0.8986 Y3.0273
N15260 X0.948 Y3.041
N15265 X0.9979 Y3.053
N15270 X1.0481 Y3.0634
N15275 X1.0985 Y3.0723
N15280 X1.1492 Y3.08
N15285 X1.2001 Y3.0866
N15290 X1.251 Y3.0922
N15295 X1.3021 Y3.097
N15300 X1.3532 Y3.1011
N15305 X1.4044 Y3.1045
N15310 X1.4555 Y3.1075
N15315 X1.4882 Y3.1092
N15320 X1.5062 Y3.1115
N15325 X1.5235 Y3.1166
N15330 X1.5398 Y3.1243
N15335 X1.5548 Y3.1344
N15340 X1.5578 Y3.1367
N15345 X1.6423 Y3.1967
N15350 X1.6702 Y3.2164
N15355 X1.6868 Y3.2267
N15360 X1.7002 Y3.2348
N15365 X1.7751 Y3.2785
N15370 X1.7901 Y3.2871
N15375 X1.8201 Y3.3036
N15380 X1.8351 Y3.3108
N15385 X1.8501 Y3.3178
N15390 X1.8576 Y3.3215
N15395 X1.8614 Y3.3238
N15400 X1.8651 Y3.3266
N15405 X1.8704 Y3.3316
N15410 X1.8762 Y3.3391
N15415 X1.8801 Y3.3466
N15420 X1.8826 Y3.3541
N15425 X1.8838 Y3.3616
N15430 X1.885 Y3.3698
N15435 G3 X1.8182 Y3.4221 I-0.0497 J0.0052
N15440 G1 X0.4917 Y2.9413
N15445 G3 X0.5117 Y2.8444 I0.017 J-0.047
N15450 X0.5306 Y2.8494 I-0.003 J0.0499 F15.
N15455 G1 X0.5354 Y2.8519 F30.
N15460 X0.5456 Y2.857
N15465 X0.6356 Y2.8986
N15470 X0.6505 Y2.9056
N15475 X0.6655 Y2.9119
N15480 X0.6805 Y2.918
N15485 X0.6955 Y2.9231
N15490 X0.8021 Y2.9568
N15495 X0.8155 Y2.9604
N15500 X0.8305 Y2.9642
N15505 X0.8455 Y2.9676
N15510 X0.9508 Y2.9868
N15515 X0.9654 Y2.989
N15520 X0.9804 Y2.9911
N15525 X0.9954 Y2.9928
N15530 X1.0254 Y2.9945
N15535 X1.1004 Y2.9985
N15540 X1.1154 Y2.9991
N15545 X1.1304 Y2.9996
N15550 X1.1454 Y2.9995
N15555 X1.1754 Y2.9976
N15560 X1.2503 Y2.9922
N15565 X1.2803 Y2.9898
N15570 X1.2953 Y2.988
N15575 X1.3253 Y2.9827
N15580 X1.3403 Y2.9797
N15585 X1.3553 Y2.9772
N15590 X1.3628 Y2.9774
N15595 X1.3703 Y2.9786
N15600 X1.3778 Y2.9811
N15605 X1.3853 Y2.985
N15610 X1.388 Y2.9868
N15615 X1.4003 Y2.9984
N15620 X1.4037 Y3.0018
N15625 X1.4153 Y3.0133
N15630 X1.4346 Y3.0318
N15635 X1.4453 Y3.042
N15640 X1.5389 Y3.1217
N15645 X1.5548 Y3.1344
N15650 X1.5571 Y3.1369 Z-0.2239
N15655 X1.5593 Y3.1393 Z-0.223
N15660 X1.5613 Y3.1415 Z-0.2216
N15665 X1.5632 Y3.1436 Z-0.2197
N15670 X1.5645 Y3.1457 Z-0.2173
N15675 X1.5655 Y3.1474 Z-0.2145
N15680 X1.5663 Y3.1487 Z-0.2113
N15685 X1.5667 Y3.1494 Z-0.208
N15690 X1.5669 Y3.1497 Z-0.2046
N15695 G0 Z0.375
N15700 X-0.347 Y-0.4547
N15705 Z-0.1738
N15710 G1 Z-0.2238 F15.
N15715 X-0.3468 Y-0.4545 Z-0.2294
N15720 X-0.3461 Y-0.4538 Z-0.2349
N15725 X-0.345 Y-0.4527 Z-0.2403
N15730 X-0.3434 Y-0.4513 Z-0.2455
N15735 X-0.3415 Y-0.4494 Z-0.2504
N15740 X-0.3391 Y-0.4471 Z-0.255
N15745 X-0.3364 Y-0.4446 Z-0.2592
N15750 X-0.3334 Y-0.4417 Z-0.2629
N15755 X-0.3301 Y-0.4385 Z-0.2662
N15760 X-0.3265 Y-0.4352 Z-0.2689
N15765 X-0.3228 Y-0.4316 Z-0.271
N15770 X-0.3189 Y-0.4279 Z-0.2726
N15775 X-0.3148 Y-0.4241 Z-0.2735
N15780 X-0.3108 Y-0.4202 Z-0.2738
N15785 G3 X-0.1332 Y-0.2103 I-0.88 J0.9247
N15790 G1 X-0.1303 Y-0.2057 F30.
N15795 X-0.1128 Y-0.1591
N15800 X-0.0988 Y-0.1098
N15805 X-0.0878 Y-0.0598
N15810 X-0.0792 Y-0.0092
N15815 X-0.0725 Y0.0416
N15820 X-0.0672 Y0.0926
N15825 X-0.063 Y0.1437
N15830 X-0.0598 Y0.1949
N15835 X-0.0572 Y0.2461
N15840 X-0.0551 Y0.2973
N15845 X-0.0535 Y0.3486
N15850 X-0.0523 Y0.3998
N15855 X-0.0513 Y0.4511
N15860 X-0.0505 Y0.5024
N15865 X-0.0499 Y0.5536
N15870 X-0.0494 Y0.6049
N15875 X-0.049 Y0.6562
N15880 X-0.0487 Y0.7074
N15885 X-0.0484 Y0.7587
N15890 X-0.0482 Y0.81
N15895 X-0.048 Y0.9125
N15900 X-0.0477 Y1.0663
N15905 X-0.0476 Y1.2989
N15910 X-0.0485 Y1.3132
N15915 X-0.0511 Y1.3273
N15920 X-0.0554 Y1.3409
N15925 X-0.06 Y1.3529
N15930 X-0.0692 Y1.3838
N15935 X-0.073 Y1.3979
N15940 X-0.0962 Y1.4878
N15945 X-0.0992 Y1.4993
N15950 X-0.1 Y1.5028
N15955 X-0.1052 Y1.5328
N15960 X-0.1073 Y1.5478
N15965 X-0.1188 Y1.6377
N15970 X-0.1206 Y1.6527
N15975 X-0.1227 Y1.6827
N15980 X-0.123 Y1.6977
N15985 Y1.7876
N15990 X-0.1229 Y1.8026
N15995 X-0.122 Y1.8326
N16000 X-0.1205 Y1.8476
N16005 X-0.1168 Y1.8775
N16010 X-0.1092 Y1.9375
N16015 X-0.1073 Y1.9525
N16020 X-0.103 Y1.9825
N16025 X-0.0997 Y1.9975
N16030 X-0.0992 Y1.9995
N16035 X-0.0896 Y2.0499
N16040 X-0.0806 Y2.1003
N16045 X-0.0736 Y2.1511
N16050 X-0.068 Y2.2021
N16055 X-0.0637 Y2.2532
N16060 X-0.0603 Y2.3044
N16065 X-0.0576 Y2.3556
N16070 X-0.0555 Y2.4068
N16075 X-0.0538 Y2.458
N16080 X-0.0525 Y2.5093
N16085 X-0.0514 Y2.5605
N16090 X-0.0506 Y2.6118
N16095 X-0.05 Y2.6631
N16100 X-0.0494 Y2.7144
N16105 X-0.049 Y2.7656
N16110 X-0.0487 Y2.8169
N16115 X-0.0485 Y2.8682
N16120 X-0.0483 Y2.9194
N16125 X-0.048 Y3.022
N16130 X-0.0477 Y3.1758
N16135 X-0.0476 Y3.3809
N16140 X-0.0475 Y3.6372
N16145 X-0.0457 Y3.6499
N16150 X-0.0393 Y3.6747
N16155 X-0.0166 Y3.7208
N16160 X0.0171 Y3.7594
N16165 X0.0572 Y3.7913
N16170 X0.1014 Y3.8173
N16175 X0.1481 Y3.8384
N16180 X0.1965 Y3.8554
N16185 X0.2459 Y3.8691
N16190 X0.296 Y3.88
N16195 X0.3465 Y3.8888
N16200 X0.3973 Y3.8957
N16205 X0.4483 Y3.9013
N16210 X0.4994 Y3.9057
N16215 X0.5505 Y3.9092
N16220 X0.6017 Y3.9119
N16225 X0.653 Y3.9141
N16230 X0.7042 Y3.9159
N16235 X0.7555 Y3.9173
N16240 X0.8067 Y3.9184
N16245 X0.858 Y3.9192
N16250 X0.9092 Y3.9199
N16255 X0.9605 Y3.9205
N16260 X1.0118 Y3.9209
N16265 X1.0631 Y3.9212
N16270 X1.1143 Y3.9215
N16275 X1.1656 Y3.9217
N16280 X1.2681 Y3.922
N16285 X1.3707 Y3.9222
N16290 X1.5245 Y3.9223
N16295 X1.8321 Y3.9225
N16300 X2.191
N16305 X2.2712
N16310 X2.288 Y3.9237
N16315 X2.3044 Y3.9273
N16320 X2.3201 Y3.9332
N16325 X2.3299 Y3.9378
N16330 X2.3599 Y3.9514
N16335 X2.3749 Y3.9563
N16340 X2.3899 Y3.9612
N16345 X2.4049 Y3.9655
N16350 X2.4649 Y3.9816
N16355 X2.4799 Y3.985
N16360 X2.4949 Y3.9881
N16365 X2.5099 Y3.9906
N16370 X2.5399 Y3.9935
N16375 X2.5699 Y3.9961
N16380 X2.5849 Y3.9974
N16385 X2.6148 Y3.9997
N16390 X2.6298 Y3.9993
N16395 X2.6448 Y3.9989
N16400 X2.6598 Y3.9979
N16405 X2.7198 Y3.9927
N16410 X2.7331 Y3.9912
N16415 X2.7498 Y3.989
N16420 X2.7648 Y3.9865
N16425 X2.7948 Y3.979
N16430 X2.8449 Y3.9683
N16435 X2.8953 Y3.9585
N16440 X2.946 Y3.9509
N16445 X2.9969 Y3.9449
N16450 X3.0479 Y3.9401
N16455 X3.0991 Y3.9364
N16460 X3.1503 Y3.9335
N16465 X3.2015 Y3.9312
N16470 X3.2527 Y3.9294
N16475 X3.304 Y3.9279
N16480 X3.3552 Y3.9268
N16485 X3.4065 Y3.9259
N16490 X3.4578 Y3.9252
N16495 X3.509 Y3.9246
N16500 X3.5603 Y3.9242
N16505 X3.6116 Y3.9238
N16510 X3.6628 Y3.9235
N16515 X3.7141 Y3.9233
N16520 X3.8167 Y3.923
N16525 X3.9192 Y3.9228
N16530 X4.073 Y3.9227
N16535 X4.1371 Y3.9226
N16540 X4.1498 Y3.9212
N16545 X4.1624 Y3.9184
N16550 X4.2109 Y3.9018
N16555 X4.2512 Y3.8701
N16560 X4.2845 Y3.8311
N16565 X4.3118 Y3.7877
N16570 X4.3339 Y3.7415
N16575 X4.3518 Y3.6934
N16580 X4.3662 Y3.6442
N16585 X4.3777 Y3.5943
N16590 X4.3869 Y3.5438
N16595 X4.3943 Y3.4931
N16600 X4.4001 Y3.4421
N16605 X4.4047 Y3.3911
N16610 X4.4084 Y3.3399
N16615 X4.4114 Y3.2887
N16620 X4.4137 Y3.2375
N16625 X4.4155 Y3.1863
N16630 X4.417 Y3.135
N16635 X4.4181 Y3.0838
N16640 X4.419 Y3.0325
N16645 X4.4198 Y2.9812
N16650 X4.4203 Y2.93
N16655 X4.4208 Y2.8787
N16660 X4.4211 Y2.8274
N16665 X4.4214 Y2.7762
N16670 X4.4217 Y2.7249
N16675 X4.422 Y2.6224
N16680 X4.4222 Y2.5198
N16685 X4.4223 Y2.366
N16690 X4.4224 Y2.1096
N16695 X4.4225 Y2.013
N16700 X4.4237 Y1.9962
N16705 X4.4273 Y1.9797
N16710 X4.4333 Y1.964
N16715 X4.4414 Y1.9493
N16720 X4.4491 Y1.9375
N16725 X4.4572 Y1.9225
N16730 X4.4644 Y1.9075
N16735 X4.4709 Y1.8925
N16740 X4.476 Y1.8775
N16745 X4.481 Y1.8625
N16750 X4.4901 Y1.8326
N16755 X4.4932 Y1.8176
N16760 X4.4958 Y1.8026
N16765 X4.4973 Y1.7876
N16770 X4.498 Y1.7726
N16775 X4.4984 Y1.7576
N16780 Y1.7276
N16785 X4.4972 Y1.7126
N16790 X4.4959 Y1.6977
N16795 X4.4933 Y1.6827
N16800 X4.4892 Y1.664
N16805 X4.486 Y1.6527
N16810 X4.4725 Y1.6032
N16815 X4.4618 Y1.5531
N16820 X4.4535 Y1.5025
N16825 X4.4469 Y1.4516
N16830 X4.4417 Y1.4006
N16835 X4.4377 Y1.3495
N16840 X4.4345 Y1.2983
N16845 X4.432 Y1.2471
N16850 X4.43 Y1.1959
N16855 X4.4284 Y1.1446
N16860 X4.4272 Y1.0934
N16865 X4.4262 Y1.0421
N16870 X4.4254 Y0.9909
N16875 X4.4248 Y0.9396
N16880 X4.4243 Y0.8883
N16885 X4.4239 Y0.837
N16890 X4.4236 Y0.7858
N16895 X4.4234 Y0.7345
N16900 X4.4231 Y0.632
N16905 X4.4229 Y0.5294
N16910 X4.4227 Y0.3756
N16915 X4.4226 Y0.2218
N16920 X4.4075 Y0.1728
N16925 X4.3777 Y0.1311
N16930 X4.3399 Y0.0964
N16935 X4.2972 Y0.0681
N16940 X4.2514 Y0.045
N16945 X4.2036 Y0.0263
N16950 X4.1546 Y0.0113
N16955 X4.1047 Y-0.0007
N16960 X4.0544 Y-0.0103
N16965 X4.0037 Y-0.018
N16970 X3.9528 Y-0.0241
N16975 X3.9017 Y-0.0289
N16980 X3.8506 Y-0.0328
N16985 X3.7994 Y-0.0358
N16990 X3.7482 Y-0.0383
N16995 X3.697 Y-0.0402
N17000 X3.6457 Y-0.0417
N17005 X3.5945 Y-0.0429
N17010 X3.5432 Y-0.0439
N17015 X3.4919 Y-0.0446
N17020 X3.4407 Y-0.0452
N17025 X3.3894 Y-0.0457
N17030 X3.3381 Y-0.0461
N17035 X3.2869 Y-0.0464
N17040 X3.2356 Y-0.0466
N17045 X3.1512 Y-0.0469
N17050 X3.1473 Y-0.047
N17055 X3.1434 Y-0.0472
N17060 X3.1396 Y-0.0475
N17065 X3.1247 Y-0.049
N17070 X3.1097 Y-0.0499
N17075 X3.0947
N17080 X3.0797
N17085 X3.0647 Y-0.0494
N17090 X3.0134 Y-0.0503
N17095 X2.9622 Y-0.0497
N17100 X2.9109 Y-0.0493
N17105 X2.8868 Y-0.0491
N17110 X2.8701 Y-0.0502
N17115 X2.8538 Y-0.0536
N17120 X2.8381 Y-0.0594
N17125 X2.8234 Y-0.0673
N17130 G3 X2.8539 Y-0.1585 I0.0283 J-0.0412
N17135 G1 X3.0635 Y-0.1493
N17140 G3 X3.0835 Y-0.0545 I-0.0022 J0.05
N17145 X3.0647 Y-0.0494 I-0.0222 J-0.0448 F15.
N17150 G1 X3.0497 Y-0.0489 F30.
N17155 X3.0347 Y-0.0471
N17160 X3.0197 Y-0.0447
N17165 X3.0047 Y-0.0412
N17170 X2.9897 Y-0.0368
N17175 X2.9747 Y-0.0322
N17180 X2.9447 Y-0.022
N17185 X2.9297 Y-0.0161
N17190 X2.9222 Y-0.014
N17195 X2.9147 Y-0.013
N17200 X2.9072 Y-0.0132
N17205 X2.8997 Y-0.0145
N17210 X2.8922 Y-0.0171
N17215 X2.8848 Y-0.0212
N17220 X2.8782 Y-0.0262
N17225 X2.8698 Y-0.033
N17230 X2.8548 Y-0.0445
N17235 X2.839 Y-0.0562
N17240 X2.8248 Y-0.0664
N17245 X2.8172 Y-0.0712
N17250 X2.7903 Y-0.0862
N17255 X2.7798 Y-0.0912
N17260 X2.7648 Y-0.0968
N17265 X2.7524 Y-0.1012
N17270 X2.7198 Y-0.1118
N17275 X2.7048 Y-0.1155
N17280 X2.6898 Y-0.1189
N17285 X2.6748 Y-0.1211
N17290 X2.6598 Y-0.1225
N17295 X2.6448 Y-0.1233
N17300 X2.6148 Y-0.1234
N17305 X2.5849 Y-0.1223
N17310 X2.5699 Y-0.1203
N17315 X2.5549 Y-0.1178
N17320 X2.5462 Y-0.1162
N17325 X2.5399 Y-0.1143
N17330 X2.4901 Y-0.1021
N17335 X2.4401 Y-0.0904
N17340 X2.3897 Y-0.0812
N17345 X2.3389 Y-0.0741
N17350 X2.288 Y-0.0685
N17355 X2.2369 Y-0.064
N17360 X2.1857 Y-0.0605
N17365 X2.1345 Y-0.0578
N17370 X2.0833 Y-0.0556
N17375 X2.0321 Y-0.0539
N17380 X1.9808 Y-0.0526
N17385 X1.9296 Y-0.0515
N17390 X1.8783 Y-0.0507
N17395 X1.827 Y-0.05
N17400 X1.7757 Y-0.0495
N17405 X1.7245 Y-0.0491
N17410 X1.6732 Y-0.0487
N17415 X1.6219 Y-0.0485
N17420 X1.5707 Y-0.0483
N17425 X1.4681 Y-0.048
N17430 X1.3143 Y-0.0477
N17435 X1.1092 Y-0.0476
N17440 X0.699 Y-0.0475
N17445 X0.5452
N17450 X0.417
N17455 X0.4043 Y-0.0465
N17460 X0.3917 Y-0.0441
N17465 X0.3794 Y-0.0403
N17470 X0.3677 Y-0.0352
N17475 X0.3231 Y-0.0098
N17480 X0.2879 Y0.0274
N17485 X0.2594 Y0.07
N17490 X0.2366 Y0.116
N17495 X0.2185 Y0.1639
N17500 X0.2042 Y0.2132
N17505 X0.1929 Y0.2632
N17510 X0.184 Y0.3137
N17515 X0.177 Y0.3645
N17520 X0.1716 Y0.4155
N17525 X0.1673 Y0.4666
N17530 X0.164 Y0.5177
N17535 X0.1614 Y0.5689
N17540 X0.1594 Y0.6202
N17545 X0.1579 Y0.6714
N17550 X0.1566 Y0.7227
N17555 X0.1557 Y0.7739
N17560 X0.155 Y0.8252
N17565 X0.1544 Y0.8765
N17570 X0.154 Y0.9265
N17575 X0.1524 Y0.9446
N17580 X0.1481 Y0.9622
N17585 X0.141 Y0.979
N17590 X0.1315 Y0.9944
N17595 X0.0885 Y1.0531
N17600 X0.0785 Y1.0681
N17605 X0.0658 Y1.0872
N17610 X0.0594 Y1.098
N17615 X0.0058 Y1.195
N17620 X0.0014 Y1.203
N17625 X-0.0121 Y1.233
N17630 X-0.0184 Y1.248
N17635 X-0.0549 Y1.3396
N17640 X-0.0554 Y1.3409
N17645 X-0.0556 Y1.3414
N17650 G2 X-0.1108 Y1.4493 I0.589 J0.3695
N17655 X-0.1144 Y1.4648 I0.0463 J0.0188
N17660 G1 X-0.1413 Y1.869
N17665 G2 X-0.1398 Y1.8848 I0.0499 J0.0033
N17670 X-0.107 Y1.9815 I0.6732 J-0.174
N17675 X-0.0993 Y1.9991 I0.6404 J-0.2707 F15.
N17680 G1 X-0.0992 Y1.9995
N17685 X-0.096 Y2.0125 F30.
N17690 X-0.0923 Y2.0274
N17695 X-0.0768 Y2.0874
N17700 X-0.0729 Y2.1024
N17705 X-0.0648 Y2.1324
N17710 X-0.0597 Y2.1474
N17715 X-0.0541 Y2.1624
N17720 X-0.0183 Y2.2523
N17725 X-0.0092 Y2.2741
N17730 X-0.0058 Y2.2823
N17735 X0.0019 Y2.2973
N17740 X0.0099 Y2.3123
N17745 X0.0181 Y2.3272
N17750 X0.043 Y2.3722
N17755 X0.0632 Y2.4136
N17760 X0.0812 Y2.4591
N17765 X0.0961 Y2.5081
N17770 X0.1078 Y2.558
N17775 X0.117 Y2.6085
N17780 X0.1243 Y2.6592
N17785 X0.1301 Y2.7102
N17790 X0.1347 Y2.7612
N17795 X0.1383 Y2.8124
N17800 X0.1412 Y2.8636
N17805 X0.1435 Y2.9148
N17810 X0.1454 Y2.966
N17815 X0.1468 Y3.0173
N17820 X0.148 Y3.0685
N17825 X0.1489 Y3.1198
N17830 X0.1496 Y3.1711
N17835 X0.1502 Y3.2223
N17840 X0.1507 Y3.2736
N17845 X0.1511 Y3.3249
N17850 X0.1513 Y3.3761
N17855 X0.1608 Y3.4265
N17860 X0.1825 Y3.473
N17865 X0.2133 Y3.514
N17870 X0.2503 Y3.5494
N17875 X0.2918 Y3.5796
N17880 X0.3364 Y3.6049
N17885 X0.3831 Y3.626
N17890 X0.4313 Y3.6436
N17895 X0.4805 Y3.6581
N17900 X0.5303 Y3.67
N17905 X0.5807 Y3.6798
N17910 X0.6313 Y3.6878
N17915 X0.6821 Y3.6944
N17920 X0.7331 Y3.6997
N17925 X0.7842 Y3.7041
N17930 X0.8354 Y3.7076
N17935 X0.8866 Y3.7104
N17940 X0.9378 Y3.7128
N17945 X0.989 Y3.7146
N17950 X1.0403 Y3.7162
N17955 X1.0915 Y3.7174
N17960 X1.1428 Y3.7184
N17965 X1.1941 Y3.7192
N17970 X1.2453 Y3.7198
N17975 X1.2966 Y3.7203
N17980 X1.3479 Y3.7208
N17985 X1.3991 Y3.7211
N17990 X1.4504 Y3.7214
N17995 X1.5017 Y3.7216
N18000 X1.6042 Y3.7219
N18005 X1.7068 Y3.7221
N18010 X1.8606 Y3.7223
N18015 X1.9911 Y3.7224
N18020 X2.0094 Y3.7238
N18025 X2.0272 Y3.7281
N18030 X2.0441 Y3.7351
N18035 X2.0597 Y3.7447
N18040 X2.0736 Y3.7566
N18045 X2.105 Y3.788
N18050 X2.135 Y3.8172
N18055 X2.1455 Y3.8263
N18060 X2.1658 Y3.8413
N18065 X2.18 Y3.8517
N18070 X2.21 Y3.8727
N18075 X2.2297 Y3.8862
N18080 X2.24 Y3.8933
N18085 X2.2535 Y3.9012
N18090 X2.285 Y3.9168
N18095 X2.3 Y3.9239
N18100 X2.3201 Y3.9332
N18105 X2.3205 Y3.9335
N18110 G2 X2.3363 Y3.9444 I0.276 J-0.3832
N18115 X2.4291 Y3.9919 I0.2603 J-0.394
N18120 X2.442 Y3.9949 I0.0177 J-0.0468
N18125 G1 X2.6634 Y4.0162
N18130 G2 X2.6767 Y4.0157 I0.0048 J-0.0498
N18135 X2.7768 Y3.9868 I-0.0801 J-0.4654
N18140 X2.7944 Y3.9791 I-0.1802 J-0.4365 F15.
N18145 G1 X2.7948 Y3.979
N18150 X2.8398 Y3.9669 F30.
N18155 X2.8698 Y3.9586
N18160 X2.8848 Y3.9528
N18165 X2.9016 Y3.9462
N18170 X2.9147 Y3.9403
N18175 X2.9747 Y3.9124
N18180 X2.9897 Y3.9046
N18185 X3.0047 Y3.8964
N18190 X3.0197 Y3.8868
N18195 X3.0635 Y3.8562
N18200 X3.0961 Y3.8358
N18205 X3.1289 Y3.8186
N18210 X3.1715 Y3.8006
N18215 X3.2202 Y3.7845
N18220 X3.2698 Y3.7718
N18225 X3.3201 Y3.7617
N18230 X3.3707 Y3.7538
N18235 X3.4216 Y3.7474
N18240 X3.4727 Y3.7424
N18245 X3.5238 Y3.7383
N18250 X3.5749 Y3.7351
N18255 X3.6261 Y3.7326
N18260 X3.6774 Y3.7306
N18265 X3.7286 Y3.7289
N18270 X3.7799 Y3.7276
N18275 X3.8311 Y3.7266
N18280 X3.8824 Y3.7258
N18285 X3.9325 Y3.7147
N18290 X3.9783 Y3.6917
N18295 X4.0187 Y3.6602
N18300 X4.0534 Y3.6225
N18305 X4.083 Y3.5805
N18310 X4.1077 Y3.5357
N18315 X4.1284 Y3.4887
N18320 X4.1456 Y3.4404
N18325 X4.1597 Y3.3911
N18330 X4.1714 Y3.3412
N18335 X4.1809 Y3.2908
N18340 X4.1888 Y3.2402
N18345 X4.1951 Y3.1893
N18350 X4.2003 Y3.1383
N18355 X4.2046 Y3.0872
N18360 X4.208 Y3.036
N18365 X4.2108 Y2.9848
N18370 X4.213 Y2.9336
N18375 X4.2149 Y2.8824
N18380 X4.2163 Y2.8311
N18385 X4.2175 Y2.7799
N18390 X4.2185 Y2.7286
N18395 X4.2193 Y2.6773
N18400 X4.2199 Y2.6261
N18405 X4.2204 Y2.5748
N18410 X4.2208 Y2.5235
N18415 X4.221 Y2.4897
N18420 X4.2221 Y2.4749
N18425 X4.225 Y2.4603
N18430 X4.2297 Y2.4463
N18435 X4.2343 Y2.4351
N18440 X4.2708 Y2.3422
N18445 X4.2766 Y2.3272
N18450 X4.2866 Y2.2973
N18455 X4.2911 Y2.2823
N18460 X4.3213 Y2.1773
N18465 X4.3288 Y2.1474
N18470 X4.3321 Y2.1324
N18475 X4.3434 Y2.0724
N18480 X4.345 Y2.0649
N18485 X4.3479 Y2.0574
N18490 X4.3507 Y2.0525
N18495 X4.3542 Y2.0475
N18500 X4.359 Y2.0424
N18505 X4.3692 Y2.034
N18510 X4.3842 Y2.0209
N18515 X4.3923 Y2.0125
N18520 X4.3992 Y2.0052
N18525 X4.4056 Y1.9975
N18530 X4.4292 Y1.9666
N18535 X4.4393 Y1.9525
N18540 X4.4414 Y1.9493
N18545 X4.4417 Y1.9489
N18550 G2 X4.4545 Y1.9346 I-0.1845 J-0.1789
N18555 X4.4818 Y1.895 I-0.1973 J-0.1647
N18560 X4.4875 Y1.8781 I-0.0437 J-0.0243
N18565 G1 X4.5091 Y1.7341
N18570 G2 X4.5086 Y1.7163 I-0.0494 J-0.0074
N18575 X4.4942 Y1.6705 I-0.2514 J0.0537
N18580 X4.4861 Y1.653 I-0.237 J0.0994 F15.
N18585 G1 X4.486 Y1.6527
N18590 X4.4762 Y1.6227 F30.
N18595 X4.471 Y1.6077
N18600 X4.4651 Y1.5927
N18605 X4.4592 Y1.5814
N18610 X4.4491 Y1.5627
N18615 X4.4442 Y1.5543
N18620 X4.4397 Y1.5478
N18625 X4.4288 Y1.5328
N18630 X4.4175 Y1.5178
N18635 X4.4058 Y1.5028
N18640 X4.3992 Y1.4945
N18645 X4.3947 Y1.4878
N18650 X4.3912 Y1.4803
N18655 X4.3891 Y1.4728
N18660 X4.3881 Y1.4653
N18665 X4.3883 Y1.4578
N18670 X4.3896 Y1.4503
N18675 X4.3921 Y1.4428
N18680 X4.3978 Y1.4278
N18685 X4.4081 Y1.3979
N18690 X4.417 Y1.3679
N18695 X4.42 Y1.3529
N18700 X4.4225 Y1.3379
N18705 X4.4239 Y1.3229
N18710 X4.4245 Y1.3079
N18715 X4.4249 Y1.2929
N18720 Y1.2629
N18725 X4.4237 Y1.248
N18730 X4.4223 Y1.233
N18735 X4.4196 Y1.218
N18740 X4.4142 Y1.1946
N18745 X4.4121 Y1.188
N18750 X4.4025 Y1.158
N18755 X4.3969 Y1.143
N18760 X4.3913 Y1.128
N18765 X4.3842 Y1.1149
N18770 X4.3748 Y1.098
N18775 X4.3692 Y1.0886
N18780 X4.3653 Y1.0831
N18785 X4.3545 Y1.0681
N18790 X4.3358 Y1.0398
N18795 X4.3197 Y1.0105
N18800 X4.3027 Y0.9726
N18805 X4.2855 Y0.9243
N18810 X4.2721 Y0.8748
N18815 X4.2617 Y0.8246
N18820 X4.2534 Y0.774
N18825 X4.2469 Y0.7232
N18830 X4.2418 Y0.6722
N18835 X4.2378 Y0.621
N18840 X4.2346 Y0.5699
N18845 X4.2321 Y0.5187
N18850 X4.2275 Y0.4676
N18855 X4.2098 Y0.4195
N18860 X4.1821 Y0.3764
N18865 X4.1472 Y0.3388
N18870 X4.1072 Y0.3067
N18875 X4.0637 Y0.2796
N18880 X4.0177 Y0.2569
N18885 X3.97 Y0.238
N18890 X3.9212 Y0.2224
N18895 X3.8716 Y0.2095
N18900 X3.8214 Y0.1989
N18905 X3.7709 Y0.1902
N18910 X3.7201 Y0.1831
N18915 X3.6692 Y0.1773
N18920 X3.6181 Y0.1726
N18925 X3.5906 Y0.1705
N18930 X3.5852 Y0.17
N18935 X3.5798 Y0.1691
N18940 X3.5745 Y0.1679
N18945 X3.5445 Y0.1638
N18950 X3.5295 Y0.1634
N18955 X3.4784 Y0.1601
N18960 X3.4633 Y0.1585
N18965 X3.4486 Y0.1546
N18970 X3.4348 Y0.1485
N18975 X3.422 Y0.1403
N18980 X3.4107 Y0.1303
N18985 X3.401 Y0.1186
N18990 G3 X3.4554 Y0.0428 I0.0419 J-0.0273
N18995 G1 X3.541 Y0.065
N19000 G3 X3.5486 Y0.1591 I-0.0125 J0.0484
N19005 X3.5295 Y0.1634 I-0.0201 J-0.0458 F15.
N19010 G1 X3.5145 Y0.1631 F30.
N19015 X3.4995 Y0.1632
N19020 X3.4845 Y0.1635
N19025 X3.4695 Y0.1638
N19030 X3.4545 Y0.1644
N19035 X3.447 Y0.1632
N19040 X3.4396 Y0.1608
N19045 X3.4334 Y0.1578
N19050 X3.4273 Y0.1537
N19055 X3.4246 Y0.1513
N19060 X3.4187 Y0.145
N19065 X3.4145 Y0.1387
N19070 X3.4046 Y0.1237
N19075 X3.394 Y0.1087
N19080 X3.3796 Y0.0885
N19085 X3.3715 Y0.0787
N19090 X3.3585 Y0.0637
N19095 X3.3496 Y0.0543
N19100 X3.3429 Y0.0487
N19105 X3.3246 Y0.0337
N19110 X3.3196 Y0.0298
N19115 X3.3045 Y0.0188
N19120 X3.2896 Y0.008
N19125 X3.2831 Y0.0038
N19130 X3.2568 Y-0.0112
N19135 X3.2446 Y-0.0171
N19140 X3.2206 Y-0.0262
N19145 X3.2146 Y-0.0282
N19150 X3.1914 Y-0.0358
N19155 X3.1905 Y-0.0362
N19160 G2 X3.1757 Y-0.0475 I-0.3899 J0.4998
N19165 X3.1455 Y-0.0683 I-0.3751 J0.5111
N19170 X3.1243 Y-0.076 I-0.0272 J0.042
N19175 G1 X2.614 Y-0.1373
N19180 G2 X2.5915 Y-0.1349 I-0.006 J0.0496
N19185 X2.5579 Y-0.1221 I0.2091 J0.5984
N19190 X2.5402 Y-0.1144 I0.2427 J0.5856 F15.
N19195 G1 X2.5399 Y-0.1143
N19200 X2.5249 Y-0.1098 F30.
N19205 X2.5099 Y-0.1052
N19210 X2.4799 Y-0.095
N19215 X2.4649 Y-0.0883
N19220 X2.4499 Y-0.0811
N19225 X2.4349 Y-0.0722
N19230 X2.4199 Y-0.0624
N19235 X2.411 Y-0.0562
N19240 X2.3749 Y-0.0288
N19245 X2.3719 Y-0.0262
N19250 X2.3599 Y-0.014
N19255 X2.3471 Y-0.002
N19260 X2.3279 Y0.0133
N19265 X2.3193 Y0.0191
N19270 X2.3057 Y0.027
N19275 X2.2912 Y0.033
N19280 X2.276 Y0.0369
N19285 G3 X2.2413 Y-0.0545 I-0.0077 J-0.0494
N19290 G1 X2.2957 Y-0.0895
N19295 G3 X2.3699 Y-0.0308 I0.027 J0.0421
N19300 X2.3599 Y-0.014 I-0.0471 J-0.0167 F15.
N19305 G1 X2.3428 Y0.0038 F30.
N19310 X2.3299 Y0.0186
N19315 X2.3224 Y0.0245
N19320 X2.315 Y0.0284
N19325 X2.3075 Y0.0309
N19330 X2.3 Y0.0324
N19335 X2.24 Y0.0438
N19340 X2.225 Y0.047
N19345 X2.21 Y0.0504
N19350 X2.195 Y0.0541
N19355 X2.09 Y0.0853
N19360 X2.0402 Y0.0975
N19365 X1.9902 Y0.1088
N19370 X1.9397 Y0.1177
N19375 X1.889 Y0.1248
N19380 X1.838 Y0.1304
N19385 X1.7869 Y0.1349
N19390 X1.7358 Y0.1385
N19395 X1.6846 Y0.1413
N19400 X1.6334 Y0.1436
N19405 X1.5821 Y0.1454
N19410 X1.5309 Y0.1468
N19415 X1.4796 Y0.148
N19420 X1.4283 Y0.1489
N19425 X1.3771 Y0.1496
N19430 X1.3258 Y0.1502
N19435 X1.2745 Y0.1507
N19440 X1.2233 Y0.151
N19445 X1.172 Y0.1513
N19450 X1.1207 Y0.1516
N19455 X1.0182 Y0.1519
N19460 X0.9156 Y0.1521
N19465 X0.7618 Y0.1523
N19470 X0.7105
N19475 X0.6593 Y0.1545
N19480 X0.6109 Y0.1714
N19485 X0.5678 Y0.1992
N19490 X0.5306 Y0.2344
N19495 X0.499 Y0.2748
N19500 X0.4724 Y0.3187
N19505 X0.4504 Y0.365
N19510 X0.4321 Y0.4129
N19515 X0.4171 Y0.4619
N19520 X0.4048 Y0.5117
N19525 X0.3948 Y0.562
N19530 X0.3867 Y0.6126
N19535 X0.38 Y0.6634
N19540 X0.3754 Y0.7072
N19545 X0.3721 Y0.7251
N19550 X0.3661 Y0.7422
N19555 X0.3574 Y0.7582
N19560 X0.3464 Y0.7727
N19565 X0.3333 Y0.7853
N19570 X0.3174 Y0.7982
N19575 X0.281 Y0.8282
N19580 X0.2757 Y0.8332
N19585 X0.2653 Y0.8432
N19590 X0.2607 Y0.8477
N19595 X0.1857 Y0.9268
N19600 X0.1707 Y0.9428
N19605 X0.1664 Y0.9481
N19610 X0.1434 Y0.9781
N19615 X0.1315 Y0.9944
N19620 X0.1311 Y0.9948
N19625 G2 X0.1172 Y1.0079 I0.6803 J0.735
N19630 X-0.1158 Y1.3512 I0.6942 J0.7219
N19635 X-0.1194 Y1.3669 I0.0463 J0.0189
N19640 G1 X-0.1582 Y1.9708
N19645 G2 X-0.1566 Y1.9868 I0.0499 J0.0032
N19650 X0.0306 Y2.357 I0.968 J-0.257
N19655 X0.0427 Y2.3718 I0.7808 J-0.6272 F15.
N19660 G1 X0.043 Y2.3722
N19665 X0.0513 Y2.3872 F30.
N19670 X0.0598 Y2.4022
N19675 X0.078 Y2.4322
N19680 X0.0808 Y2.4363
N19685 X0.1107 Y2.4773
N19690 X0.1326 Y2.5071
N19695 X0.1557 Y2.5384
N19700 X0.1664 Y2.5521
N19705 X0.1707 Y2.557
N19710 X0.1802 Y2.5671
N19715 X0.2023 Y2.5933
N19720 X0.2192 Y2.6169
N19725 X0.2369 Y2.6464
N19730 X0.2555 Y2.684
N19735 X0.2746 Y2.7316
N19740 X0.2898 Y2.7806
N19745 X0.302 Y2.8304
N19750 X0.3118 Y2.8807
N19755 X0.3197 Y2.9314
N19760 X0.326 Y2.9822
N19765 X0.3311 Y3.0333
N19770 X0.3353 Y3.0844
N19775 X0.3386 Y3.1355
N19780 X0.3469 Y3.1861
N19785 X0.3655 Y3.2339
N19790 X0.3928 Y3.2773
N19795 X0.4268 Y3.3157
N19800 X0.4658 Y3.349
N19805 X0.5083 Y3.3776
N19810 X0.5535 Y3.402
N19815 X0.6004 Y3.4225
N19820 X0.6487 Y3.4398
N19825 X0.6979 Y3.4542
N19830 X0.7478 Y3.4662
N19835 X0.7981 Y3.4762
N19840 X0.8487 Y3.4844
N19845 X0.8995 Y3.4912
N19850 X0.9504 Y3.4969
N19855 X1.0015 Y3.5015
N19860 X1.0526 Y3.5053
N19865 X1.1038 Y3.5084
N19870 X1.155 Y3.511
N19875 X1.2062 Y3.5131
N19880 X1.2575 Y3.5148
N19885 X1.3087 Y3.5163
N19890 X1.36 Y3.5174
N19895 X1.4113 Y3.5184
N19900 X1.4625 Y3.5191
N19905 X1.5138 Y3.5197
N19910 X1.5651 Y3.5203
N19915 X1.6163 Y3.5207
N19920 X1.6676 Y3.521
N19925 X1.7189 Y3.5213
N19930 X1.7701 Y3.5215
N19935 X1.8214 Y3.5219
N19940 X1.8568 Y3.5232
N19945 X1.875 Y3.5253
N19950 X1.8926 Y3.5302
N19955 X1.9092 Y3.5378
N19960 X1.9245 Y3.5479
N19965 X1.938 Y3.5603
N19970 X1.9493 Y3.5746
N19975 X1.9583 Y3.5905
N19980 X1.9634 Y3.6014
N19985 X1.9701 Y3.6137
N19990 X1.98 Y3.6314
N19995 X1.9851 Y3.6402
N20000 X2.0001 Y3.6618
N20005 X2.0313 Y3.7063
N20010 X2.0429 Y3.7213
N20015 X2.06 Y3.742
N20020 X2.0683 Y3.7513
N20025 X2.0736 Y3.7566
N20030 X2.074 Y3.7572
N20035 G2 X2.0834 Y3.7735 I0.529 J-0.2932
